;FLAVOR:Marlin
;TIME:14996
;Filament used: 7.85148m
;Layer height: 0.2
;MINX:73
;MINY:40.5
;MINZ:0.2
;MAXX:147
;MAXY:179.499
;MAXZ:7
;TARGET_MACHINE.NAME:Creality Ender-3 V3 KE
;Generated with Cura_SteamEngine 5.9.0
M140 S85
M105
M190 S85
M82 ;absolute extrusion mode
M220 S100 ;Reset Feedrate
M221 S100 ;Reset Flowrate

G28 ;Home

G92 E0 ;Reset Extruder
G1 Z2.0 F3000 ;Move Z Axis up
G1 X-2.0 Y20 Z0.28 F5000.0 ;Move to start position
M109 S240.0
G1 X-2.0 Y145.0 Z0.28 F1500.0 E15 ;Draw the first line
G1 X-1.7 Y145.0 Z0.28 F5000.0 ;Move to side a little
G1 X-1.7 Y20 Z0.28 F1500.0 E30 ;Draw the second line
G92 E0 ;Reset Extruder
G1 E-1 F1800 ;Retract a bit
G1 Z2.0 F3000 ;Move Z Axis up
G1 E0 F1800
G92 E0
G92 E0
G1 F2400 E-0.8
;LAYER_COUNT:35
;LAYER:0
M107
G0 F6000 X76.328 Y47.413 Z0.2
;TYPE:SKIRT
G1 F2400 E0
G1 F900 X76.725 Y46.898 E0.02163
G1 X76.995 Y46.569 E0.03578
G1 X77.564 Y45.931 E0.06422
G1 X78.029 Y45.45 E0.08647
G1 X78.885 Y44.658 E0.12526
G1 X79.498 Y44.154 E0.15165
G1 X80.239 Y43.596 E0.1825
G1 X80.528 Y43.398 E0.19415
G1 X81.215 Y42.965 E0.22116
G1 X81.822 Y42.614 E0.24449
G1 X82.578 Y42.217 E0.27289
G1 X83.342 Y41.869 E0.30081
G1 X84.284 Y41.503 E0.33442
G1 X84.696 Y41.363 E0.34889
G1 X85.482 Y41.129 E0.37617
G1 X86.105 Y40.968 E0.39757
G1 X86.972 Y40.783 E0.42706
G1 X87.842 Y40.65 E0.45633
G1 X88.136 Y40.615 E0.46618
G1 X88.842 Y40.557 E0.48974
G1 X89.904 Y40.512 E0.52509
G1 X90.798 Y40.5 E0.55483
G1 X129.555 Y40.502 E1.84389
G1 X130.43 Y40.514 E1.873
G1 X131.062 Y40.543 E1.89404
G1 X131.912 Y40.618 E1.92242
G1 X132.197 Y40.653 E1.93197
G1 X132.913 Y40.764 E1.95607
G1 X133.342 Y40.845 E1.97059
G1 X133.937 Y40.977 E1.99086
G1 X134.405 Y41.094 E2.00691
G1 X135.06 Y41.281 E2.02956
G1 X135.891 Y41.566 E2.05878
G1 X136.369 Y41.75 E2.07582
G1 X137.086 Y42.058 E2.10177
G1 X137.725 Y42.372 E2.12545
G1 X138.143 Y42.593 E2.14118
G1 X138.764 Y42.95 E2.165
G1 X139.222 Y43.235 E2.18295
G1 X140.092 Y43.839 E2.21817
G1 X140.651 Y44.27 E2.24165
G1 X141.503 Y45 E2.27897
G1 X141.924 Y45.401 E2.2983
G1 X142.632 Y46.142 E2.33239
G1 X142.987 Y46.551 E2.3504
G1 X143.611 Y47.342 E2.38391
G1 X144.031 Y47.929 E2.40792
G1 X144.599 Y48.816 E2.44295
G1 X144.88 Y49.308 E2.4618
G1 X145.259 Y50.035 E2.48907
G1 X145.453 Y50.445 E2.50415
G1 X145.742 Y51.115 E2.52842
G1 X145.89 Y51.49 E2.54183
G1 X146.111 Y52.11 E2.56372
G1 X146.394 Y53.052 E2.59644
G1 X146.522 Y53.544 E2.61335
G1 X146.689 Y54.304 E2.63923
G1 X146.762 Y54.705 E2.65278
G1 X146.914 Y55.953 E2.6946
G1 X146.988 Y57.238 E2.73741
G1 X147 Y57.865 E2.75827
G1 X146.999 Y161.972 E6.22088
G1 X146.982 Y163.039 E6.25637
G1 X146.956 Y163.577 E6.27429
G1 X146.898 Y164.278 E6.29768
G1 X146.86 Y164.613 E6.3089
G1 X146.753 Y165.327 E6.33291
G1 X146.66 Y165.832 E6.34999
G1 X146.516 Y166.488 E6.37233
G1 X146.259 Y167.415 E6.40432
G1 X146.041 Y168.091 E6.42794
G1 X145.587 Y169.258 E6.46959
G1 X145.301 Y169.88 E6.49236
G1 X144.886 Y170.687 E6.52254
G1 X144.627 Y171.14 E6.5399
G1 X144.185 Y171.855 E6.56786
G1 X143.749 Y172.482 E6.59326
G1 X143.182 Y173.217 E6.62413
G1 X142.829 Y173.642 E6.64251
G1 X141.939 Y174.592 E6.68581
G1 X141.524 Y174.986 E6.70484
G1 X140.891 Y175.54 E6.73282
G1 X140.448 Y175.895 E6.7517
G1 X139.722 Y176.43 E6.78169
G1 X139.248 Y176.748 E6.80068
G1 X138.304 Y177.314 E6.83729
G1 X137.579 Y177.699 E6.86459
G1 X136.714 Y178.11 E6.89644
G1 X136.256 Y178.291 E6.91282
G1 X135.554 Y178.55 E6.93771
G1 X134.659 Y178.837 E6.96897
G1 X133.723 Y179.069 E7.00104
G1 X132.981 Y179.217 E7.02621
G1 X132.01 Y179.366 E7.05888
G1 X131.494 Y179.419 E7.07613
G1 X130.559 Y179.476 E7.10729
G1 X129.156 Y179.499 E7.15396
G1 X90.364 Y179.496 E8.44419
G1 X89.579 Y179.485 E8.4703
G1 X88.923 Y179.454 E8.49214
G1 X88.434 Y179.415 E8.50846
G1 X87.55 Y179.31 E8.53807
G1 X86.97 Y179.216 E8.55761
G1 X86.067 Y179.028 E8.58829
G1 X85.562 Y178.897 E8.60564
G1 X84.775 Y178.662 E8.63296
G1 X83.909 Y178.358 E8.66348
G1 X83.563 Y178.222 E8.67585
G1 X82.686 Y177.832 E8.70777
G1 X82.126 Y177.552 E8.7286
G1 X81.163 Y177.009 E8.76537
G1 X80.665 Y176.694 E8.78497
G1 X79.967 Y176.214 E8.81314
G1 X79.39 Y175.77 E8.83736
G1 X79.015 Y175.461 E8.85352
G1 X78.368 Y174.884 E8.88235
G1 X78.04 Y174.567 E8.89752
G1 X77.613 Y174.128 E8.91789
G1 X76.964 Y173.396 E8.95043
G1 X76.758 Y173.145 E8.96123
G1 X76.315 Y172.565 E8.9855
G1 X75.962 Y172.067 E9.00581
G1 X75.447 Y171.266 E9.03748
G1 X75.261 Y170.947 E9.04976
G1 X74.972 Y170.417 E9.06984
G1 X74.751 Y169.983 E9.08604
G1 X74.46 Y169.363 E9.10882
G1 X74.293 Y168.974 E9.1229
G1 X73.89 Y167.877 E9.16177
G1 X73.667 Y167.152 E9.187
G1 X73.482 Y166.467 E9.2106
G1 X73.3 Y165.614 E9.23961
G1 X73.229 Y165.206 E9.25338
G1 X73.133 Y164.534 E9.27596
G1 X73.085 Y164.089 E9.29084
G1 X73.035 Y163.438 E9.31256
G1 X73.009 Y162.747 E9.33556
G1 X73 Y161.985 E9.36091
G1 X73.002 Y57.917 E12.82222
G1 X73.012 Y57.189 E12.84644
G1 X73.054 Y56.295 E12.8762
G1 X73.133 Y55.472 E12.9037
G1 X73.183 Y55.105 E12.91602
G1 X73.319 Y54.318 E12.94259
G1 X73.485 Y53.529 E12.9694
G1 X73.822 Y52.311 E13.01144
G1 X74.064 Y51.611 E13.03607
G1 X74.574 Y50.384 E13.08026
G1 X74.88 Y49.759 E13.10341
G1 X75.338 Y48.922 E13.13514
G1 X75.665 Y48.387 E13.156
G1 X76.127 Y47.692 E13.18376
G1 X76.328 Y47.413 E13.19519
G0 F6000 X77.294 Y46.835
G1 F900 X77.852 Y46.209 E13.22308
G1 X78.301 Y45.744 E13.24458
G1 X79.157 Y44.952 E13.28337
G1 X79.739 Y44.473 E13.30844
G1 X80.465 Y43.926 E13.33868
G1 X80.742 Y43.736 E13.34985
G1 X81.415 Y43.311 E13.37632
G1 X82.008 Y42.968 E13.39911
G1 X82.744 Y42.581 E13.42676
G1 X83.494 Y42.239 E13.45418
G1 X83.809 Y42.11 E13.4655
G1 X84.413 Y41.882 E13.48697
G1 X84.825 Y41.742 E13.50145
G1 X85.582 Y41.516 E13.52772
G1 X86.189 Y41.359 E13.54858
G1 X87.033 Y41.178 E13.57729
G1 X87.889 Y41.047 E13.60609
G1 X88.169 Y41.014 E13.61546
G1 X88.859 Y40.957 E13.63849
G1 X89.909 Y40.912 E13.67345
G1 X90.798 Y40.9 E13.70302
G1 X129.549 Y40.902 E14.99188
G1 X130.412 Y40.914 E15.02059
G1 X131.044 Y40.943 E15.04163
G1 X131.864 Y41.015 E15.06901
G1 X132.136 Y41.048 E15.07812
G1 X132.839 Y41.157 E15.10178
G1 X133.256 Y41.236 E15.1159
G1 X133.84 Y41.365 E15.13579
G1 X134.296 Y41.479 E15.15143
G1 X134.93 Y41.659 E15.17335
G1 X135.747 Y41.939 E15.20207
G1 X136.211 Y42.118 E15.21861
G1 X136.928 Y42.426 E15.24457
G1 X137.538 Y42.725 E15.26716
G1 X137.944 Y42.94 E15.28244
G1 X138.553 Y43.29 E15.3058
G1 X138.994 Y43.564 E15.32307
G1 X139.848 Y44.156 E15.35763
G1 X140.391 Y44.574 E15.38043
G1 X141.227 Y45.29 E15.41703
G1 X141.648 Y45.691 E15.43637
G1 X142.33 Y46.404 E15.46919
G1 X142.673 Y46.799 E15.48659
G1 X143.286 Y47.575 E15.51948
G1 X143.694 Y48.145 E15.54279
G1 X144.262 Y49.032 E15.57783
G1 X144.525 Y49.493 E15.59548
G1 X144.898 Y50.207 E15.62227
G1 X145.086 Y50.603 E15.63685
G1 X145.37 Y51.262 E15.66072
G1 X145.513 Y51.625 E15.6737
G1 X145.73 Y52.232 E15.69514
G1 X145.839 Y52.573 E15.70704
G1 X146.007 Y53.153 E15.72713
G1 X146.131 Y53.63 E15.74352
G1 X146.295 Y54.376 E15.76892
G1 X146.368 Y54.777 E15.78248
G1 X146.517 Y56.001 E15.82349
G1 X146.588 Y57.246 E15.86497
G1 X146.6 Y57.865 E15.88556
G1 X146.599 Y161.966 E19.34797
G1 X146.582 Y163.02 E19.38303
G1 X146.557 Y163.544 E19.40048
G1 X146.5 Y164.233 E19.42348
G1 X146.464 Y164.554 E19.43422
G1 X146.357 Y165.268 E19.45823
G1 X146.269 Y165.746 E19.4744
G1 X146.125 Y166.402 E19.49674
G1 X145.878 Y167.293 E19.52749
G1 X145.668 Y167.946 E19.5503
G1 X145.223 Y169.091 E19.59116
G1 X144.945 Y169.697 E19.61334
G1 X144.53 Y170.504 E19.64352
G1 X144.287 Y170.93 E19.65983
G1 X143.857 Y171.627 E19.68707
G1 X143.432 Y172.238 E19.71182
G1 X142.874 Y172.961 E19.7422
G1 X142.521 Y173.386 E19.76058
G1 X141.663 Y174.302 E19.80232
G1 X141.26 Y174.685 E19.82081
G1 X140.64 Y175.228 E19.84822
G1 X140.211 Y175.573 E19.86653
G1 X139.499 Y176.098 E19.89596
G1 X139.042 Y176.405 E19.91427
G1 X138.116 Y176.961 E19.95019
G1 X137.407 Y177.338 E19.9769
G1 X136.567 Y177.738 E20.00784
G1 X136.117 Y177.916 E20.02394
G1 X135.432 Y178.169 E20.04823
G1 X134.537 Y178.456 E20.07949
G1 X133.644 Y178.677 E20.11008
G1 X132.92 Y178.822 E20.13464
G1 X131.968 Y178.968 E20.16668
G1 X131.47 Y179.02 E20.18333
G1 X130.552 Y179.076 E20.21392
G1 X129.156 Y179.099 E20.26036
G1 X90.37 Y179.096 E21.55039
G1 X89.598 Y179.085 E21.57606
G1 X88.954 Y179.055 E21.59751
G1 X88.481 Y179.018 E21.61329
G1 X87.614 Y178.915 E21.64233
G1 X87.052 Y178.824 E21.66126
G1 X86.149 Y178.636 E21.69194
G1 X85.676 Y178.514 E21.70819
G1 X84.908 Y178.285 E21.73484
G1 X84.055 Y177.985 E21.76492
G1 X83.725 Y177.856 E21.7767
G1 X82.865 Y177.474 E21.808
G1 X82.305 Y177.194 E21.82882
G1 X81.377 Y176.671 E21.86425
G1 X80.892 Y176.364 E21.88335
G1 X80.194 Y175.884 E21.91152
G1 X79.644 Y175.461 E21.9346
G1 X79.281 Y175.163 E21.95022
G1 X78.646 Y174.596 E21.97853
G1 X78.327 Y174.288 E21.99328
G1 X77.9 Y173.849 E22.01365
G1 X77.273 Y173.142 E22.04508
G1 X77.076 Y172.902 E22.05541
G1 X76.641 Y172.333 E22.07923
G1 X76.298 Y171.85 E22.09893
G1 X75.792 Y171.064 E22.13002
G1 X75.612 Y170.756 E22.14189
G1 X75.328 Y170.235 E22.16163
G1 X75.113 Y169.813 E22.17738
G1 X74.828 Y169.205 E22.19971
G1 X74.661 Y168.816 E22.21379
G1 X74.272 Y167.759 E22.25125
G1 X74.053 Y167.047 E22.27603
G1 X73.873 Y166.383 E22.29891
G1 X73.694 Y165.546 E22.32738
G1 X73.625 Y165.149 E22.34078
G1 X73.531 Y164.491 E22.36289
G1 X73.484 Y164.058 E22.37737
G1 X73.435 Y163.423 E22.39856
G1 X73.409 Y162.742 E22.42122
G1 X73.4 Y161.985 E22.4464
G1 X73.402 Y57.923 E25.90752
G1 X73.412 Y57.208 E25.9313
G1 X73.454 Y56.314 E25.96107
G1 X73.529 Y55.526 E25.9874
G1 X73.577 Y55.173 E25.99925
G1 X73.71 Y54.4 E26.02533
G1 X73.871 Y53.636 E26.0513
G1 X74.208 Y52.418 E26.09334
G1 X74.442 Y51.742 E26.11713
G1 X74.933 Y50.56 E26.1597
G1 X75.231 Y49.951 E26.18225
G1 X75.689 Y49.114 E26.21398
G1 X75.998 Y48.608 E26.2337
G1 X76.451 Y47.926 E26.26093
G1 X76.645 Y47.657 E26.27197
G1 X77.034 Y47.152 E26.29317
G1 X77.294 Y46.835 E26.3068
G0 F6000 X78.14 Y46.487
G1 F900 X78.573 Y46.038 E26.32755
G1 X79.429 Y45.246 E26.36634
G1 X79.98 Y44.792 E26.39008
G1 X80.691 Y44.256 E26.4197
G1 X80.956 Y44.074 E26.43039
G1 X81.616 Y43.657 E26.45636
G1 X82.194 Y43.322 E26.47858
G1 X82.91 Y42.945 E26.50549
G1 X83.647 Y42.609 E26.53243
G1 X83.95 Y42.484 E26.54333
G1 X84.542 Y42.261 E26.56437
G1 X84.94 Y42.125 E26.57836
G1 X85.682 Y41.903 E26.60412
G1 X86.273 Y41.75 E26.62443
G1 X87.117 Y41.569 E26.65314
G1 X87.935 Y41.444 E26.68066
G1 X88.202 Y41.413 E26.6896
G1 X88.876 Y41.357 E26.71209
G1 X89.914 Y41.312 E26.74665
G1 X90.798 Y41.3 E26.77606
G1 X129.543 Y41.302 E28.06472
G1 X130.394 Y41.314 E28.09303
G1 X131.026 Y41.343 E28.11407
G1 X131.816 Y41.412 E28.14044
G1 X132.075 Y41.443 E28.14912
G1 X132.764 Y41.55 E28.17231
G1 X133.17 Y41.627 E28.18606
G1 X133.743 Y41.753 E28.20557
G1 X134.187 Y41.864 E28.22079
G1 X134.8 Y42.037 E28.24198
G1 X135.603 Y42.312 E28.27021
G1 X136.053 Y42.486 E28.28625
G1 X136.77 Y42.794 E28.31221
G1 X137.351 Y43.078 E28.33372
G1 X137.745 Y43.287 E28.34855
G1 X138.342 Y43.63 E28.37145
G1 X138.766 Y43.893 E28.38805
G1 X139.604 Y44.473 E28.42194
G1 X140.131 Y44.878 E28.44405
G1 X140.951 Y45.58 E28.47995
G1 X141.372 Y45.981 E28.49929
G1 X142.028 Y46.667 E28.53086
G1 X142.359 Y47.047 E28.54762
G1 X142.961 Y47.808 E28.57989
G1 X143.357 Y48.361 E28.60252
G1 X143.915 Y49.231 E28.63689
G1 X144.171 Y49.678 E28.65403
G1 X144.537 Y50.378 E28.6803
G1 X144.719 Y50.762 E28.69443
G1 X144.998 Y51.408 E28.71784
G1 X145.136 Y51.76 E28.73041
G1 X145.349 Y52.355 E28.75143
G1 X145.455 Y52.684 E28.76293
G1 X145.62 Y53.253 E28.78263
G1 X145.74 Y53.716 E28.79854
G1 X145.901 Y54.448 E28.82347
G1 X145.974 Y54.849 E28.83703
G1 X146.12 Y56.049 E28.87723
G1 X146.188 Y57.254 E28.91737
G1 X146.2 Y57.865 E28.9377
G1 X146.199 Y161.959 E32.39988
G1 X146.182 Y163.001 E32.43454
G1 X146.158 Y163.512 E32.45156
G1 X146.103 Y164.188 E32.47412
G1 X146.068 Y164.495 E32.48439
G1 X145.964 Y165.195 E32.50793
G1 X145.878 Y165.66 E32.52366
G1 X145.734 Y166.316 E32.546
G1 X145.497 Y167.171 E32.57551
G1 X145.295 Y167.801 E32.59751
G1 X144.85 Y168.946 E32.63837
G1 X144.589 Y169.514 E32.65916
G1 X144.182 Y170.306 E32.68878
G1 X143.946 Y170.72 E32.70463
G1 X143.528 Y171.399 E32.73115
G1 X143.115 Y171.994 E32.75524
G1 X142.566 Y172.705 E32.78511
G1 X142.213 Y173.13 E32.80349
G1 X141.388 Y174.012 E32.84366
G1 X140.996 Y174.384 E32.86163
G1 X140.376 Y174.927 E32.88904
G1 X139.974 Y175.251 E32.90622
G1 X139.275 Y175.766 E32.93509
G1 X138.836 Y176.062 E32.9527
G1 X137.928 Y176.608 E32.98794
G1 X137.235 Y176.977 E33.01406
G1 X136.42 Y177.366 E33.04409
G1 X135.978 Y177.541 E33.0599
G1 X135.31 Y177.788 E33.08359
G1 X134.415 Y178.075 E33.11485
G1 X133.565 Y178.285 E33.14397
G1 X132.859 Y178.427 E33.16793
G1 X131.926 Y178.57 E33.19932
G1 X131.446 Y178.621 E33.21537
G1 X130.545 Y178.676 E33.2454
G1 X129.156 Y178.699 E33.2916
G1 X90.376 Y178.696 E34.58143
G1 X89.616 Y178.685 E34.60671
G1 X88.985 Y178.656 E34.62772
G1 X88.528 Y178.621 E34.64296
G1 X87.678 Y178.52 E34.67143
G1 X87.134 Y178.432 E34.68976
G1 X86.231 Y178.244 E34.72044
G1 X85.79 Y178.131 E34.73558
G1 X85.041 Y177.908 E34.76158
G1 X84.2 Y177.612 E34.79123
G1 X83.887 Y177.49 E34.8024
G1 X83.043 Y177.116 E34.83311
G1 X82.501 Y176.846 E34.85325
G1 X81.591 Y176.333 E34.88799
G1 X81.119 Y176.034 E34.90657
G1 X80.421 Y175.554 E34.93475
G1 X79.898 Y175.152 E34.95669
G1 X79.547 Y174.864 E34.97179
G1 X78.924 Y174.309 E34.99954
G1 X78.614 Y174.009 E35.01389
G1 X78.187 Y173.57 E35.03426
G1 X77.582 Y172.888 E35.06458
G1 X77.394 Y172.659 E35.07444
G1 X76.967 Y172.101 E35.09781
G1 X76.634 Y171.633 E35.11691
G1 X76.137 Y170.862 E35.14742
G1 X75.963 Y170.564 E35.1589
G1 X75.684 Y170.053 E35.17826
G1 X75.475 Y169.643 E35.19357
G1 X75.195 Y169.047 E35.21547
G1 X75.036 Y168.678 E35.22883
G1 X74.654 Y167.641 E35.26559
G1 X74.439 Y166.942 E35.28991
G1 X74.264 Y166.299 E35.31208
G1 X74.088 Y165.477 E35.34004
G1 X74.021 Y165.093 E35.353
G1 X73.929 Y164.448 E35.37467
G1 X73.883 Y164.027 E35.38876
G1 X73.835 Y163.407 E35.40944
G1 X73.809 Y162.737 E35.43174
G1 X73.8 Y161.985 E35.45675
G1 X73.802 Y57.929 E38.91767
G1 X73.812 Y57.227 E38.94102
G1 X73.854 Y56.333 E38.97079
G1 X73.926 Y55.579 E38.99598
G1 X73.971 Y55.241 E39.00732
G1 X74.101 Y54.483 E39.0329
G1 X74.257 Y53.743 E39.05806
G1 X74.594 Y52.525 E39.10009
G1 X74.811 Y51.895 E39.12225
G1 X75.292 Y50.736 E39.16399
G1 X75.582 Y50.143 E39.18594
G1 X76.031 Y49.322 E39.21707
G1 X76.331 Y48.829 E39.23626
G1 X76.775 Y48.16 E39.26297
G1 X76.962 Y47.901 E39.27359
G1 X77.343 Y47.406 E39.29437
G1 X77.593 Y47.101 E39.30748
G1 X78.14 Y46.487 E39.33483
G1 F2400 E38.53483
;MESH:TapaCaixaFDM_V4_model_fill.stl
G0 F6000 X89.856 Y60.703
;TYPE:WALL-INNER
G1 F2400 E39.33483
G1 F900 X89.567 Y60.664 E39.34453
G1 X88.906 Y60.519 E39.36704
G1 X88.641 Y60.394 E39.37679
G1 X88.189 Y60.134 E39.39413
G1 X87.898 Y59.91 E39.40634
G1 X87.574 Y59.586 E39.42158
G1 X87.352 Y59.297 E39.4337
G1 X87.16 Y58.965 E39.44646
G1 X87.042 Y58.703 E39.45602
G1 X86.86 Y58.155 E39.47522
G1 X86.784 Y57.414 E39.5
G1 X86.882 Y56.778 E39.5214
G1 X87.146 Y56.029 E39.54782
G1 X87.542 Y55.433 E39.57161
G1 X87.731 Y55.241 E39.58058
G1 X88.233 Y54.839 E39.60197
G1 X88.457 Y54.697 E39.61079
G1 X89.03 Y54.448 E39.63157
G1 X89.276 Y54.387 E39.64
G1 X90.036 Y54.295 E39.66546
G1 X90.363 Y54.327 E39.67639
G1 X90.903 Y54.435 E39.6947
G1 X91.29 Y54.574 E39.70838
G1 X91.73 Y54.81 E39.72499
G1 X92.038 Y55.034 E39.73765
G1 X92.342 Y55.326 E39.75167
G1 X92.553 Y55.583 E39.76273
G1 X92.821 Y56.002 E39.77928
G1 X92.97 Y56.317 E39.79087
G1 X93.094 Y56.693 E39.80403
G1 X93.158 Y56.994 E39.81427
G1 X93.209 Y57.512 E39.83158
G1 X93.121 Y58.233 E39.85574
G1 X92.908 Y58.815 E39.87635
G1 X92.794 Y59.05 E39.88504
G1 X92.411 Y59.615 E39.90774
G1 X91.824 Y60.129 E39.93369
G1 X91.583 Y60.285 E39.94324
G1 X90.799 Y60.617 E39.97156
G1 X89.856 Y60.703 E40.00305
G0 F6000 X89.804 Y60.306
G1 F900 X88.973 Y60.123 E40.03136
G1 X88.389 Y59.787 E40.05376
G1 X88.18 Y59.628 E40.0625
G1 X87.856 Y59.304 E40.07774
G1 X87.698 Y59.097 E40.0864
G1 X87.454 Y58.676 E40.10258
G1 X87.252 Y58.064 E40.12402
G1 X87.19 Y57.451 E40.14451
