;FLAVOR:Marlin
;TIME:12988
;Filament used: 6.1125m
;Layer height: 0.2
;MINX:67.308
;MINY:73.01
;MINZ:0.2
;MAXX:206.286
;MAXY:146.99
;MAXZ:7
;TARGET_MACHINE.NAME:Creality Ender-3 V3 KE
;Generated with Cura_SteamEngine 5.9.0
M140 S85
M105
M190 S85
M82 ;absolute extrusion mode
M220 S100 ;Reset Feedrate
M221 S100 ;Reset Flowrate

G28 ;Home

G92 E0 ;Reset Extruder
G1 Z2.0 F3000 ;Move Z Axis up
G1 X-2.0 Y20 Z0.28 F5000.0 ;Move to start position
M109 S240.0
G1 X-2.0 Y145.0 Z0.28 F1500.0 E15 ;Draw the first line
G1 X-1.7 Y145.0 Z0.28 F5000.0 ;Move to side a little
G1 X-1.7 Y20 Z0.28 F1500.0 E30 ;Draw the second line
G92 E0 ;Reset Extruder
G1 E-1 F1800 ;Retract a bit
G1 Z2.0 F3000 ;Move Z Axis up
G1 E0 F1800
G92 E0
G92 E0
G1 F2400 E-0.8
;LAYER_COUNT:35
;LAYER:0
M107
G0 F6000 X77.173 Y145.409 Z0.2
;TYPE:SKIRT
G1 F2400 E0
G1 F900 X76.719 Y145.191 E0.01675
G1 X75.857 Y144.73 E0.04926
G1 X75.377 Y144.444 E0.06785
G1 X74.822 Y144.088 E0.08978
G1 X74.152 Y143.615 E0.11706
G1 X73.911 Y143.432 E0.12712
G1 X73.172 Y142.816 E0.15912
G1 X72.649 Y142.341 E0.18262
G1 X72.144 Y141.849 E0.20607
G1 X71.858 Y141.552 E0.21978
G1 X71.261 Y140.876 E0.24978
G1 X70.889 Y140.415 E0.26948
G1 X70.252 Y139.541 E0.30545
G1 X69.988 Y139.136 E0.32153
G1 X69.666 Y138.611 E0.34201
G1 X69.438 Y138.212 E0.3573
G1 X69.011 Y137.386 E0.38823
G1 X68.804 Y136.938 E0.40464
G1 X68.504 Y136.22 E0.43052
G1 X68.358 Y135.832 E0.44431
G1 X68.12 Y135.122 E0.46922
G1 X67.93 Y134.482 E0.49142
G1 X67.684 Y133.486 E0.52554
G1 X67.563 Y132.862 E0.54668
G1 X67.391 Y131.541 E0.59099
G1 X67.336 Y130.54 E0.62434
G1 X67.308 Y129.044 E0.6741
G1 X67.311 Y90.367 E1.9605
G1 X67.326 Y89.513 E1.98891
G1 X67.374 Y88.668 E2.01706
G1 X67.426 Y88.12 E2.03537
G1 X67.519 Y87.411 E2.05915
G1 X67.584 Y87.023 E2.07224
G1 X67.712 Y86.37 E2.09437
G1 X67.808 Y85.957 E2.10847
G1 X67.994 Y85.26 E2.13247
G1 X68.253 Y84.462 E2.16037
G1 X68.476 Y83.853 E2.18194
G1 X68.867 Y82.919 E2.21562
G1 X69.157 Y82.311 E2.23802
G1 X69.595 Y81.489 E2.269
G1 X69.952 Y80.92 E2.29135
G1 X70.362 Y80.313 E2.31571
G1 X70.825 Y79.679 E2.34182
G1 X71.147 Y79.27 E2.35913
G1 X71.633 Y78.695 E2.38417
G1 X71.92 Y78.38 E2.39835
G1 X72.552 Y77.741 E2.42824
G1 X73.015 Y77.312 E2.44923
G1 X73.959 Y76.533 E2.48994
G1 X74.437 Y76.182 E2.50966
G1 X75 Y75.796 E2.53237
G1 X75.462 Y75.502 E2.55058
G1 X76.538 Y74.9 E2.59159
G1 X77.005 Y74.674 E2.60885
G1 X77.617 Y74.4 E2.63115
G1 X78.159 Y74.177 E2.65064
G1 X78.925 Y73.897 E2.67777
G1 X79.386 Y73.748 E2.69388
G1 X80.69 Y73.414 E2.73865
G1 X81.44 Y73.27 E2.76405
G1 X82.305 Y73.141 E2.79314
G1 X82.819 Y73.087 E2.81033
G1 X83.728 Y73.028 E2.84063
G1 X84.695 Y73.01 E2.8728
G1 X189.239 Y73.019 E6.34994
G1 X189.76 Y73.031 E6.36728
G1 X190.532 Y73.069 E6.39299
G1 X191.471 Y73.158 E6.42436
G1 X192.433 Y73.311 E6.45676
G1 X192.912 Y73.409 E6.47302
G1 X193.616 Y73.578 E6.4971
G1 X194.004 Y73.685 E6.51048
G1 X194.84 Y73.954 E6.53969
G1 X195.526 Y74.208 E6.56402
G1 X196.44 Y74.595 E6.59704
G1 X196.881 Y74.807 E6.61331
G1 X197.765 Y75.284 E6.64672
G1 X198.389 Y75.661 E6.67097
G1 X199.378 Y76.337 E6.71081
G1 X199.859 Y76.707 E6.731
G1 X200.593 Y77.321 E6.76282
G1 X201.249 Y77.944 E6.79291
G1 X201.668 Y78.376 E6.81293
G1 X202.185 Y78.949 E6.8386
G1 X202.579 Y79.42 E6.85902
G1 X203.345 Y80.454 E6.90182
G1 X203.613 Y80.864 E6.91812
G1 X203.956 Y81.428 E6.94007
G1 X204.201 Y81.861 E6.95662
G1 X204.579 Y82.59 E6.98393
G1 X204.729 Y82.909 E6.99565
G1 X205.067 Y83.712 E7.02463
G1 X205.285 Y84.3 E7.04549
G1 X205.507 Y84.961 E7.06868
G1 X205.673 Y85.514 E7.08789
G1 X205.983 Y86.839 E7.13314
G1 X206.081 Y87.422 E7.15281
G1 X206.203 Y88.447 E7.18714
G1 X206.261 Y89.27 E7.21458
G1 X206.286 Y90.016 E7.23941
G1 X206.281 Y129.96 E8.56795
G1 X206.267 Y130.484 E8.58538
G1 X206.227 Y131.271 E8.61159
G1 X206.114 Y132.369 E8.64831
G1 X206.048 Y132.795 E8.66264
G1 X205.927 Y133.442 E8.68454
G1 X205.826 Y133.898 E8.70007
G1 X205.592 Y134.779 E8.73039
G1 X205.433 Y135.29 E8.74819
G1 X205.2 Y135.953 E8.77156
G1 X205.036 Y136.377 E8.78668
G1 X204.69 Y137.175 E8.81561
G1 X204.471 Y137.627 E8.83232
G1 X204.022 Y138.455 E8.86364
G1 X203.732 Y138.939 E8.88241
G1 X203.3 Y139.603 E8.90876
G1 X202.994 Y140.037 E8.92642
G1 X202.336 Y140.875 E8.96186
G1 X201.79 Y141.5 E8.98946
G1 X200.918 Y142.386 E9.03081
G1 X200.473 Y142.786 E9.05071
G1 X199.854 Y143.302 E9.07751
G1 X199.473 Y143.595 E9.0935
G1 X198.835 Y144.048 E9.11952
G1 X198.385 Y144.344 E9.13744
G1 X197.623 Y144.8 E9.16697
G1 X197.215 Y145.022 E9.18242
G1 X196.549 Y145.354 E9.20717
G1 X196.181 Y145.522 E9.22063
G1 X195.557 Y145.783 E9.24312
G1 X195.095 Y145.958 E9.25956
G1 X194.173 Y146.261 E9.29184
G1 X193.489 Y146.451 E9.31545
G1 X192.401 Y146.694 E9.35253
G1 X191.946 Y146.771 E9.36787
G1 X191.306 Y146.86 E9.38937
G1 X190.87 Y146.905 E9.40394
G1 X189.951 Y146.963 E9.43457
G1 X188.485 Y146.99 E9.48334
G1 X84.361 Y146.981 E12.94652
G1 X83.84 Y146.969 E12.96385
G1 X83.068 Y146.931 E12.98956
G1 X82.138 Y146.843 E13.02063
G1 X81.859 Y146.805 E13.02999
G1 X81.159 Y146.687 E13.0536
G1 X80.679 Y146.588 E13.0699
G1 X80.041 Y146.437 E13.09171
G1 X79.695 Y146.343 E13.10364
G1 X78.787 Y146.053 E13.13534
G1 X78.075 Y145.79 E13.16058
G1 X77.173 Y145.409 E13.19315
G0 F6000 X78.231 Y145.422
G1 F900 X77.346 Y145.048 E13.22511
G1 X76.907 Y144.838 E13.24129
G1 X76.062 Y144.387 E13.27315
G1 X75.593 Y144.107 E13.29132
G1 X75.053 Y143.761 E13.31265
G1 X74.394 Y143.296 E13.33947
G1 X74.153 Y143.113 E13.34954
G1 X73.441 Y142.52 E13.38036
G1 X72.928 Y142.054 E13.40341
G1 X72.432 Y141.571 E13.42644
G1 X72.158 Y141.287 E13.43956
G1 X71.572 Y140.624 E13.46899
G1 X71.212 Y140.179 E13.48803
G1 X70.587 Y139.322 E13.52331
G1 X70.329 Y138.927 E13.539
G1 X70.013 Y138.412 E13.5591
G1 X69.793 Y138.028 E13.57382
G1 X69.374 Y137.218 E13.60415
G1 X69.173 Y136.784 E13.62006
G1 X68.878 Y136.079 E13.64547
G1 X68.737 Y135.705 E13.65877
G1 X68.503 Y135.008 E13.68322
G1 X68.318 Y134.386 E13.7048
G1 X68.077 Y133.409 E13.73827
G1 X67.96 Y132.81 E13.75857
G1 X67.788 Y131.489 E13.80288
G1 X67.736 Y130.532 E13.83476
G1 X67.708 Y129.044 E13.88426
G1 X67.711 Y90.374 E15.17043
G1 X67.725 Y89.536 E15.1983
G1 X67.772 Y88.706 E15.22595
G1 X67.823 Y88.172 E15.24379
G1 X67.914 Y87.476 E15.26714
G1 X67.976 Y87.1 E15.27982
G1 X68.102 Y86.46 E15.30151
G1 X68.194 Y86.06 E15.31516
G1 X68.375 Y85.383 E15.33847
G1 X68.629 Y84.599 E15.36588
G1 X68.845 Y84.007 E15.38684
G1 X69.228 Y83.091 E15.41986
G1 X69.51 Y82.499 E15.44167
G1 X69.934 Y81.702 E15.4717
G1 X70.284 Y81.144 E15.49361
G1 X70.685 Y80.549 E15.51747
G1 X71.139 Y79.926 E15.54311
G1 X71.452 Y79.528 E15.55995
G1 X71.929 Y78.964 E15.58452
G1 X72.204 Y78.661 E15.59813
G1 X72.824 Y78.034 E15.62746
G1 X73.27 Y77.62 E15.6477
G1 X74.196 Y76.855 E15.68765
G1 X74.663 Y76.512 E15.70692
G1 X75.215 Y76.133 E15.72919
G1 X75.657 Y75.851 E15.74663
G1 X76.713 Y75.26 E15.78688
G1 X77.168 Y75.039 E15.8037
G1 X77.769 Y74.77 E15.8256
G1 X78.297 Y74.553 E15.84459
G1 X79.048 Y74.278 E15.87119
G1 X79.509 Y74.129 E15.8873
G1 X80.765 Y73.807 E15.93043
G1 X81.499 Y73.666 E15.95529
G1 X82.347 Y73.539 E15.9838
G1 X82.845 Y73.486 E16.00046
G1 X83.735 Y73.428 E16.03013
G1 X84.695 Y73.41 E16.06206
G1 X189.23 Y73.419 E19.53891
G1 X189.74 Y73.431 E19.55588
G1 X190.512 Y73.469 E19.58159
G1 X191.408 Y73.553 E19.61152
G1 X192.353 Y73.703 E19.64334
G1 X192.819 Y73.798 E19.65916
G1 X193.509 Y73.963 E19.68276
G1 X193.881 Y74.066 E19.69559
G1 X194.717 Y74.335 E19.7248
G1 X195.37 Y74.576 E19.74795
G1 X196.267 Y74.955 E19.78034
G1 X196.691 Y75.159 E19.79599
G1 X197.559 Y75.627 E19.82879
G1 X198.163 Y75.991 E19.85225
G1 X199.134 Y76.654 E19.89135
G1 X199.603 Y77.014 E19.91102
G1 X200.318 Y77.611 E19.942
G1 X200.962 Y78.222 E19.97152
G1 X201.371 Y78.644 E19.99107
G1 X201.878 Y79.206 E20.01624
G1 X202.272 Y79.677 E20.03667
G1 X203.01 Y80.673 E20.0779
G1 X203.271 Y81.072 E20.09376
G1 X203.608 Y81.625 E20.11529
G1 X203.846 Y82.045 E20.13135
G1 X204.217 Y82.76 E20.15814
G1 X204.36 Y83.064 E20.16932
G1 X204.692 Y83.852 E20.19776
G1 X204.906 Y84.427 E20.21816
G1 X205.124 Y85.076 E20.24093
G1 X205.29 Y85.629 E20.26014
G1 X205.589 Y86.906 E20.30376
G1 X205.684 Y87.469 E20.32275
G1 X205.804 Y88.475 E20.35645
G1 X205.861 Y89.284 E20.38342
G1 X205.886 Y90.016 E20.40778
G1 X205.881 Y129.95 E21.73599
G1 X205.868 Y130.464 E21.75309
G1 X205.829 Y131.23 E21.7786
G1 X205.719 Y132.308 E21.81464
G1 X205.655 Y132.721 E21.82854
G1 X205.536 Y133.356 E21.85003
G1 X205.439 Y133.796 E21.86502
G1 X205.21 Y134.66 E21.89475
G1 X205.055 Y135.158 E21.91209
G1 X204.827 Y135.809 E21.93504
G1 X204.669 Y136.218 E21.94962
G1 X204.33 Y137.001 E21.978
G1 X204.119 Y137.437 E21.99411
G1 X203.679 Y138.25 E22.02485
G1 X203.397 Y138.721 E22.04311
G1 X202.973 Y139.373 E22.06898
G1 X202.679 Y139.79 E22.08595
G1 X202.021 Y140.628 E22.12139
G1 X201.505 Y141.219 E22.14748
G1 X200.633 Y142.105 E22.18883
G1 X200.217 Y142.479 E22.20744
G1 X199.61 Y142.985 E22.23372
G1 X199.241 Y143.269 E22.24921
G1 X198.615 Y143.714 E22.27475
G1 X198.179 Y144.001 E22.29211
G1 X197.431 Y144.449 E22.32111
G1 X197.037 Y144.664 E22.33604
G1 X196.383 Y144.99 E22.36035
G1 X196.026 Y145.153 E22.3734
G1 X195.415 Y145.409 E22.39543
G1 X194.97 Y145.578 E22.41126
G1 X194.065 Y145.876 E22.44296
G1 X193.402 Y146.061 E22.46585
G1 X192.334 Y146.3 E22.50225
G1 X191.891 Y146.375 E22.51719
G1 X191.264 Y146.462 E22.53825
G1 X190.845 Y146.506 E22.55226
G1 X189.944 Y146.563 E22.58229
G1 X188.485 Y146.59 E22.63082
G1 X84.37 Y146.581 E26.0937
G1 X83.86 Y146.569 E26.11067
G1 X83.088 Y146.531 E26.13638
G1 X82.192 Y146.447 E26.16631
G1 X81.926 Y146.411 E26.17524
G1 X81.239 Y146.295 E26.19841
G1 X80.771 Y146.199 E26.2143
G1 X80.145 Y146.051 E26.23569
G1 X79.816 Y145.962 E26.24703
G1 X78.925 Y145.678 E26.27813
G1 X78.231 Y145.422 E26.30274
G0 F6000 X79.063 Y145.303
G1 F900 X78.387 Y145.054 E26.3267
G1 X77.518 Y144.687 E26.35807
G1 X77.095 Y144.485 E26.37366
G1 X76.267 Y144.043 E26.40488
G1 X75.809 Y143.77 E26.42261
G1 X75.284 Y143.434 E26.44335
G1 X74.636 Y142.977 E26.46972
G1 X74.409 Y142.805 E26.47919
G1 X73.71 Y142.224 E26.50942
G1 X73.207 Y141.767 E26.53203
G1 X72.72 Y141.294 E26.55461
G1 X72.458 Y141.022 E26.56717
G1 X71.883 Y140.372 E26.59603
G1 X71.535 Y139.943 E26.6144
G1 X70.922 Y139.103 E26.64899
G1 X70.67 Y138.718 E26.6643
G1 X70.36 Y138.213 E26.684
G1 X70.148 Y137.844 E26.69816
G1 X69.737 Y137.05 E26.7279
G1 X69.542 Y136.629 E26.74333
G1 X69.252 Y135.938 E26.76825
G1 X69.116 Y135.577 E26.78108
G1 X68.886 Y134.894 E26.80505
G1 X68.706 Y134.29 E26.82601
G1 X68.47 Y133.332 E26.85883
G1 X68.353 Y132.733 E26.87913
G1 X68.185 Y131.438 E26.92256
G1 X68.136 Y130.524 E26.95301
G1 X68.108 Y129.044 E27.00224
G1 X68.111 Y90.38 E28.28821
G1 X68.124 Y89.559 E28.31552
G1 X68.17 Y88.744 E28.34267
G1 X68.22 Y88.224 E28.36005
G1 X68.309 Y87.541 E28.38295
G1 X68.369 Y87.177 E28.39522
G1 X68.492 Y86.55 E28.41648
G1 X68.581 Y86.163 E28.42968
G1 X68.756 Y85.506 E28.4523
G1 X69.005 Y84.736 E28.47921
G1 X69.214 Y84.161 E28.49956
G1 X69.589 Y83.263 E28.53193
G1 X69.863 Y82.687 E28.55314
G1 X70.287 Y81.89 E28.58317
G1 X70.616 Y81.368 E28.60369
G1 X71.017 Y80.773 E28.62756
G1 X71.454 Y80.173 E28.65225
G1 X71.758 Y79.786 E28.66861
G1 X72.225 Y79.233 E28.69269
G1 X72.489 Y78.942 E28.70576
G1 X73.096 Y78.327 E28.7345
G1 X73.525 Y77.928 E28.75398
G1 X74.433 Y77.177 E28.79317
G1 X74.889 Y76.842 E28.81199
G1 X75.431 Y76.47 E28.83386
G1 X75.853 Y76.2 E28.85052
G1 X76.888 Y75.62 E28.88998
G1 X77.332 Y75.404 E28.9064
G1 X77.921 Y75.14 E28.92787
G1 X78.435 Y74.929 E28.94635
G1 X79.171 Y74.659 E28.97243
G1 X79.632 Y74.51 E28.98854
G1 X80.841 Y74.2 E29.03005
G1 X81.558 Y74.062 E29.05434
G1 X82.39 Y73.937 E29.08232
G1 X82.871 Y73.885 E29.09841
G1 X83.743 Y73.828 E29.12748
G1 X84.695 Y73.81 E29.15915
G1 X189.22 Y73.819 E32.63566
G1 X189.72 Y73.831 E32.6523
G1 X190.492 Y73.869 E32.678
G1 X191.355 Y73.949 E32.70683
G1 X191.607 Y73.983 E32.71529
G1 X192.273 Y74.095 E32.73775
G1 X192.726 Y74.187 E32.75313
G1 X193.403 Y74.349 E32.77628
G1 X193.759 Y74.447 E32.78856
G1 X194.579 Y74.71 E32.8172
G1 X195.214 Y74.944 E32.83971
G1 X196.094 Y75.316 E32.87149
G1 X196.501 Y75.511 E32.8865
G1 X197.353 Y75.97 E32.91868
G1 X197.938 Y76.322 E32.94139
G1 X198.89 Y76.971 E32.97971
G1 X199.359 Y77.331 E32.99938
G1 X200.043 Y77.901 E33.02899
G1 X200.675 Y78.5 E33.05795
G1 X201.074 Y78.912 E33.07703
G1 X201.571 Y79.463 E33.10171
G1 X201.965 Y79.934 E33.12213
G1 X202.675 Y80.892 E33.16179
G1 X202.929 Y81.28 E33.17722
G1 X203.26 Y81.823 E33.19837
G1 X203.491 Y82.229 E33.21391
G1 X203.855 Y82.93 E33.24018
G1 X203.991 Y83.219 E33.2508
G1 X204.317 Y83.992 E33.2787
G1 X204.527 Y84.554 E33.29866
G1 X204.741 Y85.191 E33.32101
G1 X204.907 Y85.744 E33.34021
G1 X205.195 Y86.973 E33.3822
G1 X205.287 Y87.516 E33.40051
G1 X205.405 Y88.503 E33.43357
G1 X205.461 Y89.298 E33.46008
G1 X205.486 Y90.016 E33.48398
G1 X205.481 Y129.94 E34.81186
G1 X205.468 Y130.444 E34.82862
G1 X205.431 Y131.19 E34.85347
G1 X205.324 Y132.247 E34.8888
G1 X205.262 Y132.647 E34.90226
G1 X205.145 Y133.27 E34.92335
G1 X205.052 Y133.694 E34.93779
G1 X204.828 Y134.541 E34.96693
G1 X204.677 Y135.026 E34.98382
G1 X204.454 Y135.665 E35.00633
G1 X204.302 Y136.059 E35.02038
G1 X203.97 Y136.827 E35.04821
G1 X203.767 Y137.247 E35.06372
G1 X203.336 Y138.045 E35.09389
G1 X203.062 Y138.503 E35.11164
G1 X202.646 Y139.143 E35.13702
G1 X202.364 Y139.543 E35.1533
G1 X201.719 Y140.365 E35.18805
G1 X201.22 Y140.938 E35.21333
G1 X200.348 Y141.824 E35.25467
G1 X199.961 Y142.172 E35.27198
G1 X199.366 Y142.668 E35.29775
G1 X199.009 Y142.943 E35.31274
G1 X198.395 Y143.38 E35.3378
G1 X197.973 Y143.658 E35.35461
G1 X197.24 Y144.098 E35.38304
G1 X196.858 Y144.306 E35.39751
G1 X196.217 Y144.626 E35.42134
G1 X195.871 Y144.784 E35.43399
G1 X195.272 Y145.035 E35.45559
G1 X194.845 Y145.198 E35.47079
G1 X193.957 Y145.491 E35.5019
G1 X193.314 Y145.671 E35.5241
G1 X192.267 Y145.906 E35.55979
G1 X191.836 Y145.979 E35.57433
G1 X191.221 Y146.064 E35.59498
G1 X190.82 Y146.107 E35.6084
G1 X189.937 Y146.163 E35.63782
G1 X188.485 Y146.19 E35.68613
G1 X84.38 Y146.181 E39.14867
G1 X83.88 Y146.169 E39.16531
G1 X83.108 Y146.131 E39.19101
G1 X82.245 Y146.051 E39.21984
G1 X81.993 Y146.017 E39.2283
G1 X81.319 Y145.903 E39.25103
G1 X80.863 Y145.81 E39.26651
G1 X80.249 Y145.665 E39.2875
G1 X79.937 Y145.581 E39.29824
G1 X79.063 Y145.303 E39.32875
G1 F2400 E38.52875
G0 F6000 X85.766 Y128.534
G1 F2400 E39.32875
G1 F900 X85.766 Y91.466 E40.56163
G1 X187.832 Y91.466 E43.95636
G1 X187.832 Y128.534 E45.18925
G1 X85.766 Y128.534 E48.58398
G0 F6000 X85.366 Y128.934
G1 F900 X85.366 Y91.066 E49.84347
G1 X188.232 Y91.066 E53.26481
G1 X188.232 Y128.934 E54.52431
G1 X85.366 Y128.934 E57.94564
G0 F6000 X84.966 Y129.334
G1 F900 X84.966 Y90.666 E59.23175
G1 X188.632 Y90.666 E62.67969
G1 X188.632 Y129.334 E63.96579
G1 X84.966 Y129.334 E67.41374
G0 F6000 X84.566 Y129.734
G1 F900 X84.566 Y90.266 E68.72645
G1 X189.032 Y90.266 E72.201
G1 X189.032 Y129.734 E73.51371
G1 X84.566 Y129.734 E76.98827
G0 F6000 X84.293 Y130.134
G1 F900 X84.288 Y130.133 E76.98844
G1 X84.28 Y130.132 E76.98871
G1 X84.221 Y130.104 E76.99088
G1 X84.217 Y130.101 E76.99104
G1 X84.198 Y130.083 E76.99191
G1 X84.176 Y130.04 E76.99352
G1 X84.174 Y130.034 E76.99373
G1 X84.166 Y129.96 E76.99621
G1 X84.166 Y89.991 E78.32558
G1 X84.169 Y89.977 E78.32606
G1 X84.195 Y89.921 E78.32811
G1 X84.23 Y89.892 E78.32962
G1 X84.25 Y89.879 E78.33042
G1 X84.266 Y89.874 E78.33097
G1 X84.34 Y89.866 E78.33345
G1 X189.259 Y89.866 E81.82307
G1 X189.342 Y89.875 E81.82585
G1 X189.364 Y89.884 E81.82664
G1 X189.377 Y89.891 E81.82713
G1 X189.408 Y89.928 E81.82873
G1 X189.412 Y89.934 E81.82897
G1 X189.43 Y89.976 E81.83049
G1 X189.432 Y89.988 E81.8309
G1 X189.432 Y130.02 E83.16237
G1 X189.431 Y130.027 E83.1626
G1 X189.419 Y130.06 E83.16377
G1 X189.413 Y130.07 E83.16416
G1 X189.395 Y130.093 E83.16513
G1 X189.386 Y130.102 E83.16555
G1 X189.378 Y130.109 E83.16591
G1 X189.338 Y130.126 E83.16735
G1 X189.258 Y130.134 E83.17003
G1 X84.293 Y130.134 E86.66118
G0 F6000 X84.265 Y130.534
G1 F900 X84.228 Y130.529 E86.66242
