;FLAVOR:Marlin
;TIME:10387
;Filament used: 9.36421m
;Layer height: 0.2
;MINX:69.4
;MINY:36.9
;MINZ:0.24
;MAXX:150.6
;MAXY:183.1
;MAXZ:8.09
;TARGET_MACHINE.NAME:Creality Ender-3 V3 KE
;Generated with Cura_SteamEngine 5.9.0
M140 S70
M105
M190 S70
M82 ;absolute extrusion mode
M220 S100 ;Reset Feedrate
M221 S100 ;Reset Flowrate

G28 ;Home

G92 E0 ;Reset Extruder
G1 Z2.0 F3000 ;Move Z Axis up
G1 X-2.0 Y20 Z0.28 F5000.0 ;Move to start position
M109 S220.0
G1 X-2.0 Y145.0 Z0.28 F1500.0 E15 ;Draw the first line
G1 X-1.7 Y145.0 Z0.28 F5000.0 ;Move to side a little
G1 X-1.7 Y20 Z0.28 F1500.0 E30 ;Draw the second line
G92 E0 ;Reset Extruder
G1 E-1 F1800 ;Retract a bit
G1 Z2.0 F3000 ;Move Z Axis up
G1 E0 F1800
G92 E0
G92 E0
G1 F2400 E-0.8
;LAYER_COUNT:35
;LAYER:-6
M107
G0 F9000 X72.483 Y46.662 Z0.24
;TYPE:SUPPORT-INTERFACE
G1 F2400 E0
G1 F1350 X73.044 Y45.805 E0.08176
G1 X73.262 Y45.495 E0.11201
G1 X74.237 Y44.244 E0.23862
G1 X74.937 Y43.445 E0.32342
G1 X75.758 Y42.617 E0.41649
G1 X76.533 Y41.908 E0.50034
G1 X77.49 Y41.136 E0.59849
G1 X77.75 Y40.941 E0.62443
G1 X78.754 Y40.246 E0.7219
G1 X79.112 Y40.019 E0.75574
G1 X80.182 Y39.398 E0.8545
G1 X80.78 Y39.082 E0.90849
G1 X81.695 Y38.65 E0.98926
G1 X82.825 Y38.182 E1.08689
G1 X83.945 Y37.814 E1.18099
G1 X84.412 Y37.674 E1.21991
G1 X85.376 Y37.426 E1.29937
G1 X85.739 Y37.349 E1.32899
G1 X86.742 Y37.163 E1.41042
G1 X87.235 Y37.089 E1.45021
G1 X88.445 Y36.963 E1.54732
G1 X89.022 Y36.928 E1.59346
G1 X89.974 Y36.9 E1.66949
G1 X129.944 Y36.9 E4.86007
G1 X130.608 Y36.912 E4.91308
G1 X131.187 Y36.936 E4.95934
G1 X132.204 Y37.018 E5.04078
G1 X133.362 Y37.18 E5.13412
G1 X133.744 Y37.245 E5.16505
G1 X134.694 Y37.446 E5.24256
G1 X135.137 Y37.555 E5.27898
G1 X136.123 Y37.835 E5.3608
G1 X136.637 Y38.003 E5.40396
G1 X137.571 Y38.345 E5.48336
G1 X138.112 Y38.567 E5.53004
G1 X139.222 Y39.079 E5.62762
G1 X140.407 Y39.723 E5.73528
G1 X140.862 Y39.999 E5.77776
G1 X141.678 Y40.531 E5.85551
G1 X141.943 Y40.719 E5.88145
G1 X142.852 Y41.407 E5.97245
G1 X143.316 Y41.789 E6.02042
G1 X144.053 Y42.439 E6.09887
G1 X144.235 Y42.613 E6.11897
G1 X145.068 Y43.459 E6.21374
G1 X145.57 Y44.016 E6.27359
G1 X145.802 Y44.29 E6.30225
G1 X146.359 Y44.989 E6.3736
G1 X146.591 Y45.299 E6.40451
G1 X147.254 Y46.253 E6.49724
G1 X147.477 Y46.607 E6.53064
G1 X148.201 Y47.861 E6.64623
G1 X148.413 Y48.266 E6.68272
G1 X148.845 Y49.19 E6.76414
G1 X149.236 Y50.136 E6.84585
G1 X149.382 Y50.518 E6.87849
G1 X149.674 Y51.412 E6.95356
G1 X149.802 Y51.84 E6.98922
G1 X150.064 Y52.844 E7.07205
G1 X150.07 Y53.002 E7.08467
G1 X150.139 Y53.185 E7.10028
G1 X150.337 Y54.242 E7.18613
G1 X150.402 Y54.698 E7.22289
G1 X150.541 Y56.037 E7.33035
G1 X150.568 Y56.478 E7.36562
G1 X150.596 Y57.466 E7.44452
G1 X150.6 Y162.59 E15.83597
G1 X150.568 Y163.645 E15.92023
G1 X150.485 Y164.652 E16.00088
G1 X150.443 Y165.011 E16.02973
G1 X150.293 Y166.046 E16.11322
G1 X150.053 Y167.194 E16.20683
G1 X149.949 Y167.617 E16.24161
G1 X149.665 Y168.614 E16.32436
G1 X149.493 Y169.137 E16.3683
G1 X149.163 Y170.05 E16.4458
G1 X148.921 Y170.623 E16.49545
G1 X148.37 Y171.827 E16.60114
G1 X147.772 Y172.905 E16.69955
G1 X147.536 Y173.304 E16.73655
G1 X146.972 Y174.164 E16.81865
G1 X146.736 Y174.504 E16.85168
G1 X146.094 Y175.347 E16.93627
G1 X145.715 Y175.808 E16.98391
G1 X144.882 Y176.74 E17.08369
G1 X143.978 Y177.624 E17.18462
G1 X143.401 Y178.142 E17.24651
G1 X142.506 Y178.859 E17.33805
G1 X142.197 Y179.091 E17.3689
G1 X141.244 Y179.753 E17.46152
G1 X140.801 Y180.029 E17.50319
G1 X139.818 Y180.601 E17.59397
G1 X139.365 Y180.838 E17.63478
G1 X138.302 Y181.347 E17.72886
G1 X137.094 Y181.84 E17.83301
G1 X136.052 Y182.186 E17.92065
G1 X135.586 Y182.322 E17.9594
G1 X134.571 Y182.582 E18.04304
G1 X134.256 Y182.651 E18.06878
G1 X133.255 Y182.837 E18.15005
G1 X132.762 Y182.907 E18.1898
G1 X131.55 Y183.037 E18.2871
G1 X130.974 Y183.072 E18.33317
G1 X130.026 Y183.096 E18.40887
G1 X89.898 Y183.1 E21.61206
G1 X89.057 Y183.076 E21.67922
G1 X88.684 Y183.056 E21.70903
G1 X87.866 Y182.986 E21.77457
G1 X86.65 Y182.82 E21.87254
G1 X86.255 Y182.754 E21.9045
G1 X85.305 Y182.553 E21.98201
G1 X84.859 Y182.445 E22.01865
G1 X83.866 Y182.161 E22.10109
G1 X83.345 Y181.99 E22.14486
G1 X82.307 Y181.603 E22.23329
G1 X81.849 Y181.413 E22.27287
G1 X80.887 Y180.972 E22.35735
G1 X80.432 Y180.738 E22.39819
G1 X79.51 Y180.232 E22.48214
G1 X78.311 Y179.455 E22.59619
G1 X77.988 Y179.232 E22.62752
G1 X76.887 Y178.386 E22.73836
G1 X75.934 Y177.547 E22.83971
G1 X75.117 Y176.738 E22.93149
G1 X74.452 Y176.01 E23.0102
G1 X74.264 Y175.792 E23.03317
G1 X73.637 Y175.011 E23.11312
G1 X73.437 Y174.742 E23.13988
G1 X72.751 Y173.756 E23.23576
G1 X72.452 Y173.274 E23.28104
G1 X71.795 Y172.13 E23.38635
G1 X71.575 Y171.714 E23.42391
G1 X71.084 Y170.651 E23.51738
G1 X71.069 Y170.642 E23.51877
G1 X70.657 Y169.575 E23.61008
G1 X70.346 Y168.662 E23.68707
G1 X70.194 Y168.156 E23.72924
G1 X69.918 Y167.088 E23.81729
G1 X69.845 Y166.746 E23.84521
G1 X69.667 Y165.777 E23.92385
G1 X69.585 Y165.245 E23.96682
G1 X69.463 Y164.055 E24.06231
G1 X69.428 Y163.47 E24.10909
G1 X69.4 Y162.53 E24.18416
G1 X69.4 Y57.406 E32.57561
G1 X69.424 Y56.556 E32.64349
G1 X69.444 Y56.184 E32.67323
G1 X69.515 Y55.344 E32.74052
G1 X69.557 Y54.972 E32.7704
G1 X69.687 Y54.088 E32.84173
G1 X69.761 Y53.844 E32.86208
G1 X69.733 Y53.812 E32.86547
G1 X70.051 Y52.362 E32.98397
G1 X70.409 Y51.124 E33.08684
G1 X70.837 Y49.945 E33.18696
G1 X71.091 Y49.333 E33.23986
G1 X71.626 Y48.17 E33.34204
G1 X72.266 Y47.018 E33.44724
G1 X72.483 Y46.662 E33.48052
G0 F9000 X72.432 Y47.542
G1 F1350 X150.199 Y125.309 E42.25953
G1 F2400 E41.45953
G0 F9000 X150.199 Y127.572
G1 F2400 E42.25953
G1 F1350 X71.666 Y49.039 E51.12501
G0 F9000 X71.008 Y50.644
G1 F1350 X150.199 Y129.835 E60.06478
G1 F2400 E59.26478
G0 F9000 X150.199 Y132.097
G1 F2400 E60.06478
G1 F1350 X70.467 Y52.365 E69.06562
G0 F9000 X70.071 Y54.232
G1 F1350 X150.199 Y134.36 E78.11116
G1 F2400 E77.31116
G0 F9000 X150.199 Y136.623
G1 F2400 E78.11116
G1 F1350 X69.84 Y56.264 E87.18277
G1 F2400 E86.38277
G0 F9000 X69.8 Y58.486
G1 F2400 E87.18277
G1 F1350 X150.199 Y138.886 E96.25897
G1 F2400 E95.45897
G0 F9000 X150.199 Y141.148
G1 F2400 E96.25897
G1 F1350 X69.8 Y60.749 E105.3351
G1 F2400 E104.5351
G0 F9000 X69.8 Y63.012
G1 F2400 E105.3351
G1 F1350 X150.199 Y143.411 E114.41123
G1 F2400 E113.61123
G0 F9000 X150.2 Y145.675
G1 F2400 E114.41123
G1 F1350 X69.8 Y65.274 E123.48754
G1 F2400 E122.68754
G0 F9000 X69.8 Y67.537
G1 F2400 E123.48754
G1 F1350 X150.2 Y147.937 E132.56378
G1 F2400 E131.76378
G0 F9000 X150.2 Y150.2
G1 F2400 E132.56378
G1 F1350 X69.8 Y69.8 E141.64003
G1 F2400 E140.84003
G0 F9000 X69.8 Y72.063
G1 F2400 E141.64003
G1 F1350 X150.2 Y152.463 E150.71628
G1 F2400 E149.91628
G0 F9000 X150.2 Y154.726
G1 F2400 E150.71628
G1 F1350 X69.8 Y74.325 E159.79258
G1 F2400 E158.99258
G0 F9000 X69.8 Y76.588
G1 F2400 E159.79258
G1 F1350 X150.2 Y156.988 E168.86883
G1 F2400 E168.06883
G0 F9000 X150.2 Y159.251
G1 F2400 E168.86883
G1 F1350 X69.8 Y78.851 E177.94507
G1 F2400 E177.14507
G0 F9000 X69.8 Y81.114
G1 F2400 E177.94507
G1 F1350 X150.2 Y161.514 E187.02132
G1 F2400 E186.22132
G0 F9000 X150.159 Y163.736
G1 F2400 E187.02132
G1 F1350 X69.8 Y83.376 E196.093
G1 F2400 E195.293
G0 F9000 X69.8 Y85.639
G1 F2400 E196.093
G1 F1350 X149.929 Y165.768 E205.13865
G0 F9000 X149.529 Y167.631
G1 F1350 X69.8 Y87.902 E214.13915
G1 F2400 E213.33915
G0 F9000 X69.8 Y90.165
G1 F2400 E214.13915
G1 F1350 X148.99 Y169.354 E223.07874
G0 F9000 X148.329 Y170.956
G1 F1350 X69.8 Y92.427 E231.94377
G1 F2400 E231.14377
G0 F9000 X69.8 Y94.69
G1 F2400 E231.94377
G1 F1350 X147.565 Y172.455 E240.72256
G0 F9000 X146.698 Y173.851
G1 F1350 X69.8 Y96.953 E249.40347
G1 F2400 E248.60347
G0 F9000 X69.8 Y99.216
G1 F2400 E249.40347
G1 F1350 X145.737 Y175.152 E257.97584
G0 F9000 X144.684 Y176.362
G1 F1350 X69.8 Y101.478 E266.42939
G1 F2400 E265.62939
G0 F9000 X69.8 Y103.741
G1 F2400 E266.42939
G1 F1350 X143.538 Y177.48 E274.75363
G0 F9000 X142.305 Y178.508
G1 F1350 X69.8 Y106.004 E282.93857
G1 F2400 E282.13857
G0 F9000 X69.8 Y108.267
G1 F2400 E282.93857
G1 F1350 X140.979 Y179.446 E290.97387
G0 F9000 X139.557 Y180.286
G1 F1350 X69.8 Y110.529 E298.84864
G1 F2400 E298.04864
G0 F9000 X69.8 Y112.792
G1 F2400 E298.84864
G1 F1350 X138.032 Y181.024 E306.55126
G0 F9000 X136.395 Y181.65
G1 F1350 X69.8 Y115.055 E314.06908
G1 F2400 E313.26908
G0 F9000 X69.8 Y117.318
G1 F2400 E314.06908
G1 F1350 X134.635 Y182.152 E321.38816
G0 F9000 X132.727 Y182.508
G1 F1350 X69.8 Y119.58 E328.49196
G1 F2400 E327.69196
G0 F9000 X69.8 Y121.843
G1 F2400 E328.49196
G1 F1350 X130.637 Y182.68 E335.35976
G1 F2400 E334.55976
G0 F9000 X128.39 Y182.696
G1 F2400 E335.35976
G1 F1350 X69.8 Y124.106 E341.97391
G1 F2400 E341.17391
G0 F9000 X69.8 Y126.368
G1 F2400 E341.97391
G1 F1350 X126.127 Y182.696 E348.33264
G1 F2400 E347.53264
G0 F9000 X123.865 Y182.696
G1 F2400 E348.33264
G1 F1350 X69.8 Y128.631 E354.43597
G1 F2400 E353.63597
G0 F9000 X69.8 Y130.894
G1 F2400 E354.43597
G1 F1350 X121.603 Y182.697 E360.28394
G1 F2400 E359.48394
G0 F9000 X119.34 Y182.697
G1 F2400 E360.28394
G1 F1350 X69.8 Y133.157 E365.87644
G1 F2400 E365.07644
G0 F9000 X69.8 Y135.419
G1 F2400 E365.87644
G1 F1350 X117.077 Y182.697 E371.21353
G1 F2400 E370.41353
G0 F9000 X114.815 Y182.697
G1 F2400 E371.21353
G1 F1350 X69.8 Y137.682 E376.29521
G1 F2400 E375.49521
G0 F9000 X69.8 Y139.945
G1 F2400 E376.29521
G1 F1350 X112.552 Y182.697 E381.12143
G1 F2400 E380.32143
G0 F9000 X110.29 Y182.697
G1 F2400 E381.12143
G1 F1350 X69.8 Y142.208 E385.69223
G1 F2400 E384.89223
G0 F9000 X69.8 Y144.47
G1 F2400 E385.69223
G1 F1350 X108.028 Y182.698 E390.00774
G1 F2400 E389.20774
G0 F9000 X105.765 Y182.698
G1 F2400 E390.00774
G1 F1350 X69.8 Y146.733 E394.06778
G1 F2400 E393.26778
G0 F9000 X69.8 Y148.996
G1 F2400 E394.06778
G1 F1350 X103.502 Y182.698 E397.87235
G1 F2400 E397.07235
G0 F9000 X101.24 Y182.699
G1 F2400 E397.87235
G1 F1350 X69.8 Y151.259 E401.42157
G1 F2400 E400.62157
G0 F9000 X69.8 Y153.521
G1 F2400 E401.42157
G1 F1350 X98.977 Y182.699 E404.71538
G1 F2400 E403.91538
G0 F9000 X96.715 Y182.699
G1 F2400 E404.71538
G1 F1350 X69.8 Y155.784 E407.75378
G1 F2400 E406.95378
G0 F9000 X69.8 Y158.047
G1 F2400 E407.75378
G1 F1350 X94.452 Y182.699 E410.53671
G1 F2400 E409.73671
G0 F9000 X92.19 Y182.699
G1 F2400 E410.53671
G1 F1350 X69.8 Y160.31 E413.06423
G1 F2400 E412.26423
G0 F9000 X69.801 Y162.574
G1 F2400 E413.06423
G1 F1350 X89.927 Y182.699 E415.33617
G1 F2400 E414.53617
G0 F9000 X87.497 Y182.532
G1 F2400 E415.33617
G1 F1350 X69.962 Y164.997 E417.31567
G1 F2400 E416.51567
G0 F9000 X70.519 Y167.817
G1 F2400 E417.31567
G1 F1350 X84.68 Y181.977 E418.91423
G1 F2400 E418.11423
G0 F9000 X81.039 Y180.599
G1 F2400 E418.91423
G1 F1350 X71.897 Y171.458 E419.9462
G1 F2400 E419.1462
G0 F9000 X150.199 Y123.046
G1 F2400 E419.9462
G1 F1350 X73.299 Y46.146 E428.62734
G0 F9000 X74.269 Y44.853
G1 F1350 X150.199 Y120.783 E437.19898
G1 F2400 E436.39898
G0 F9000 X150.199 Y118.52
G1 F2400 E437.19898
G1 F1350 X75.313 Y43.634 E445.65275
G0 F9000 X76.459 Y42.518
G1 F1350 X150.199 Y116.258 E453.97716
G1 F2400 E453.17716
G0 F9000 X150.199 Y113.995
G1 F2400 E453.97716
G1 F1350 X77.692 Y41.488 E462.16238
G0 F9000 X79.018 Y40.552
G1 F1350 X150.199 Y111.732 E470.19785
G1 F2400 E469.39785
G0 F9000 X150.198 Y109.469
G1 F2400 E470.19785
G1 F1350 X80.443 Y39.713 E478.07245
G0 F9000 X81.964 Y38.972
G1 F1350 X150.198 Y107.206 E485.7753
G1 F2400 E484.9753
G0 F9000 X150.198 Y104.943
G1 F2400 E485.7753
G1 F1350 X83.603 Y38.349 E493.29306
G0 F9000 X85.361 Y37.843
G1 F1350 X150.198 Y102.68 E500.61242
G1 F2400 E499.81242
G0 F9000 X150.198 Y100.418
G1 F2400 E500.61242
G1 F1350 X87.269 Y37.489 E507.71639
G1 F2400 E506.91639
G0 F9000 X89.362 Y37.319
G1 F2400 E507.71639
G1 F1350 X150.198 Y98.155 E514.58408
G1 F2400 E513.78408
G0 F9000 X150.198 Y95.892
G1 F2400 E514.58408
G1 F1350 X91.606 Y37.301 E521.1984
G1 F2400 E520.3984
G0 F9000 X93.869 Y37.301
G1 F2400 E521.1984
G1 F1350 X150.198 Y93.629 E527.55725
G1 F2400 E526.75725
G0 F9000 X150.197 Y91.366
G1 F2400 E527.55725
G1 F1350 X96.132 Y37.301 E533.66057
G1 F2400 E532.86057
G0 F9000 X98.395 Y37.301
G1 F2400 E533.66057
G1 F1350 X150.197 Y89.103 E539.50843
G1 F2400 E538.70843
G0 F9000 X150.197 Y86.84
G1 F2400 E539.50843
G1 F1350 X100.657 Y37.301 E545.10087
G1 F2400 E544.30087
G0 F9000 X102.92 Y37.301
G1 F2400 E545.10087
G1 F1350 X150.197 Y84.578 E550.43791
G1 F2400 E549.63791
G0 F9000 X150.197 Y82.315
G1 F2400 E550.43791
G1 F1350 X105.183 Y37.301 E555.51948
G1 F2400 E554.71948
G0 F9000 X107.446 Y37.301
G1 F2400 E555.51948
G1 F1350 X150.197 Y80.052 E560.34558
G1 F2400 E559.54558
G0 F9000 X150.197 Y77.79
G1 F2400 E560.34558
G1 F1350 X109.708 Y37.301 E564.91633
G1 F2400 E564.11633
G0 F9000 X111.971 Y37.301
G1 F2400 E564.91633
G1 F1350 X150.197 Y75.527 E569.23161
G1 F2400 E568.43161
G0 F9000 X150.197 Y73.263
G1 F2400 E569.23161
G1 F1350 X114.234 Y37.301 E573.29137
G1 F2400 E572.49137
G0 F9000 X116.497 Y37.301
G1 F2400 E573.29137
G1 F1350 X150.197 Y71.001 E577.09572
G1 F2400 E576.29572
G0 F9000 X150.197 Y68.738
G1 F2400 E577.09572
G1 F1350 X118.759 Y37.301 E580.64465
G1 F2400 E579.84465
G0 F9000 X121.022 Y37.301
G1 F2400 E580.64465
G1 F1350 X150.197 Y66.475 E583.93812
G1 F2400 E583.13812
G0 F9000 X150.197 Y64.212
G1 F2400 E583.93812
G1 F1350 X123.285 Y37.301 E586.97613
G1 F2400 E586.17613
G0 F9000 X125.548 Y37.301
G1 F2400 E586.97613
G1 F1350 X150.197 Y61.95 E589.75872
G1 F2400 E588.95872
G0 F9000 X150.197 Y59.687
G1 F2400 E589.75872
G1 F1350 X127.81 Y37.301 E592.2859
G1 F2400 E591.4859
G0 F9000 X130.076 Y37.303
G1 F2400 E592.2859
G1 F1350 X150.195 Y57.423 E594.55716
G1 F2400 E593.75716
G0 F9000 X150.032 Y54.997
G1 F2400 E594.55716
G1 F1350 X132.498 Y37.463 E596.53655
G1 F2400 E595.73655
G0 F9000 X135.321 Y38.023
G1 F2400 E596.53655
G1 F1350 X149.478 Y52.18 E598.13472
G1 F2400 E597.33472
G0 F9000 X148.101 Y48.54
G1 F2400 E598.13472
G1 F1350 X138.959 Y39.399 E599.16669
M104 S220
G1 F2400 E598.36669
G0 F300 X138.959 Y39.399 Z0.54
G0 F9000 X72.147 Y48.061
;TIME_ELAPSED:358.765182
;LAYER:-5
;TYPE:SUPPORT
G1 F2400 E599.16669
G1 F1350 X80.559 Y39.649 E600.35371
G1 X79.403 Y40.309 E600.48653
G1 X78.982 Y40.575 E600.53622
G1 X78.035 Y41.23 E600.65112
G1 X77.746 Y41.445 E600.68706
G1 X76.632 Y42.347 E600.83008
G1 X76.773 Y42.488 E600.84998
G1 X75.972 Y42.97 E600.94326
G1 X75.236 Y43.716 E601.04782
G1 X74.534 Y44.512 E601.15372
G1 X74.319 Y44.773 E601.18746
G1 X73.601 Y45.713 E601.30549
G1 X73.354 Y46.062 E601.34815
G1 X72.824 Y46.877 E601.44515
G1 X72.579 Y47.281 E601.4923
G1 X72.104 Y48.138 E601.59007
G1 X71.89 Y48.56 E601.63728
G1 X71.493 Y49.42 E601.73179
G1 X71.666 Y49.507 E601.75111
G1 X71.179 Y50.184 E601.83433
G1 X71.03 Y50.592 E601.87767
G1 X83.106 Y38.516 E603.58172
G1 X84.05 Y38.201 E603.68102
G1 X84.519 Y38.064 E603.72977
G1 X85.134 Y37.903 E603.79321
G1 X70.47 Y52.567 E605.86245
G1 X70.469 Y53.375 E605.94308
G1 X70.251 Y53.302 E605.96602
G1 X70.156 Y53.744 E606.01113
G1 X70.045 Y54.406 E606.0781
G1 X86.907 Y37.544 E608.45751
G1 X87.212 Y37.498 E608.48829
G1 X87.994 Y37.551 E608.5665
G1 X87.994 Y37.414 E608.58017
G1 X88.504 Y37.361 E608.63133
G1 X69.926 Y55.939 E611.25289
G1 X69.811 Y56.4 E611.30029
G1 X69.946 Y57.333 E611.39436
G1 X89.979 Y37.301 E614.22116
G1 X91.393 Y37.301 E614.36225
G1 X69.802 Y58.891 E617.4089
G1 X69.802 Y60.306 E617.55009
G1 X92.807 Y37.301 E620.79635
G1 X94.221 Y37.301 E620.93744
G1 X69.802 Y61.72 E624.38322
G1 X69.802 Y63.134 E624.52431
G1 X95.635 Y37.301 E628.16963
G1 X97.05 Y37.301 E628.31082
G1 X69.802 Y64.548 E632.15573
G1 X69.802 Y65.962 E632.29682
G1 X98.464 Y37.301 E636.34127
G1 X99.878 Y37.301 E636.48236
G1 X69.802 Y67.377 E640.72641
G1 X69.802 Y68.791 E640.8675
G1 X101.292 Y37.301 E645.31108
G1 X102.707 Y37.301 E645.45226
G1 X69.802 Y70.205 E650.09545
G1 X69.802 Y71.619 E650.23653
G1 X104.121 Y37.301 E655.07925
G1 X105.535 Y37.301 E655.22034
G1 X69.802 Y73.034 E660.26265
G1 X69.802 Y74.448 E660.40374
G1 X106.949 Y37.301 E665.64558
G1 X108.363 Y37.301 E665.78667
G1 X69.802 Y75.862 E671.22804
G1 X69.802 Y77.276 E671.36913
