;FLAVOR:Marlin
;TIME:11237
;Filament used: 13.1599m
;Layer height: 0.2
;MINX:69.665
;MINY:37.169
;MINZ:0.24
;MAXX:150.335
;MAXY:182.839
;MAXZ:8.09
;TARGET_MACHINE.NAME:Creality Ender-3 V3 KE
;Generated with Cura_SteamEngine 5.9.0
M140 S70
M105
M190 S70
M82 ;absolute extrusion mode
M220 S100 ;Reset Feedrate
M221 S100 ;Reset Flowrate

G28 ;Home

G92 E0 ;Reset Extruder
G1 Z2.0 F3000 ;Move Z Axis up
G1 X-2.0 Y20 Z0.28 F5000.0 ;Move to start position
M109 S215
G1 X-2.0 Y145.0 Z0.28 F1500.0 E15 ;Draw the first line
G1 X-1.7 Y145.0 Z0.28 F5000.0 ;Move to side a little
G1 X-1.7 Y20 Z0.28 F1500.0 E30 ;Draw the second line
G92 E0 ;Reset Extruder
G1 E-1 F1800 ;Retract a bit
G1 Z2.0 F3000 ;Move Z Axis up
G1 E0 F1800
G92 E0
G92 E0
G1 F2400 E-0.8
;LAYER_COUNT:35
;LAYER:-6
M107
G0 F12000 X72.99 Y46.398 Z0.24
;TYPE:SUPPORT-INTERFACE
G1 F2400 E0
G1 F1800 X73.508 Y45.673 E0.07113
G1 X74.155 Y44.853 E0.1545
G1 X74.72 Y44.178 E0.22477
G1 X75.489 Y43.357 E0.31456
G1 X76.12 Y42.714 E0.38648
G1 X77.212 Y41.744 E0.50307
G1 X78.071 Y41.077 E0.58988
G1 X79.016 Y40.44 E0.68085
G1 X80.196 Y39.759 E0.78961
G1 X80.495 Y39.574 E0.81767
G1 X80.858 Y39.373 E0.8508
G1 X80.87 Y39.381 E0.85195
G1 X81.906 Y38.861 E0.94448
G1 X83.102 Y38.386 E1.0472
G1 X84.171 Y38.049 E1.13667
G1 X85.193 Y37.781 E1.22101
G1 X86.07 Y37.577 E1.29289
G1 X87.206 Y37.392 E1.38476
G1 X88.558 Y37.219 E1.49356
G1 X88.572 Y37.232 E1.49509
G1 X89.317 Y37.189 E1.55466
G1 X90.734 Y37.208 E1.66778
G1 X91.665 Y37.188 E1.74211
G1 X95.067 Y37.184 E2.01368
G1 X95.251 Y37.192 E2.02838
G1 X96.583 Y37.196 E2.1347
G1 X97.061 Y37.224 E2.17292
G1 X97.513 Y37.236 E2.20902
G1 X98.184 Y37.224 E2.26259
G1 X98.818 Y37.189 E2.31327
G1 X99.66 Y37.196 E2.38049
G1 X100.473 Y37.185 E2.44539
G1 X101.069 Y37.212 E2.49302
G1 X101.463 Y37.216 E2.52447
G1 X102.901 Y37.177 E2.6393
G1 X104.334 Y37.196 E2.7537
G1 X104.801 Y37.189 E2.79098
G1 X105.48 Y37.208 E2.8452
G1 X105.924 Y37.204 E2.88064
G1 X106.375 Y37.185 E2.91668
G1 X107.943 Y37.2 E3.04185
G1 X108.511 Y37.185 E3.0872
G1 X109.062 Y37.192 E3.13119
G1 X109.983 Y37.185 E3.20471
G1 X110.627 Y37.192 E3.25612
G1 X111.349 Y37.177 E3.31377
G1 X112.016 Y37.188 E3.36702
G1 X113.116 Y37.185 E3.45482
G1 X114.103 Y37.224 E3.53367
G1 X114.734 Y37.216 E3.58404
G1 X115.967 Y37.173 E3.68253
G1 X116.422 Y37.188 E3.71887
G1 X117.186 Y37.181 E3.77986
G1 X118.222 Y37.201 E3.86257
G1 X119.642 Y37.196 E3.97592
G1 X120.072 Y37.18 E4.01027
G1 X122.518 Y37.185 E4.20552
G1 X123.015 Y37.2 E4.24521
G1 X123.994 Y37.197 E4.32336
G1 X124.614 Y37.169 E4.3729
G1 X126.004 Y37.196 E4.48388
G1 X126.51 Y37.189 E4.52427
G1 X126.99 Y37.2 E4.5626
G1 X127.444 Y37.196 E4.59884
G1 X128.031 Y37.173 E4.64573
G1 X129.525 Y37.212 E4.76503
G1 X130.123 Y37.197 E4.81278
G1 X131.106 Y37.212 E4.89126
G1 X132.222 Y37.314 E4.98071
G1 X133.143 Y37.461 E5.05516
G1 X135.088 Y37.904 E5.21439
G1 X135.139 Y37.908 E5.21848
G1 X135.597 Y38.023 E5.25617
G1 X136.815 Y38.382 E5.35753
G1 X137.107 Y38.481 E5.38215
G1 X137.791 Y38.746 E5.4407
G1 X137.801 Y38.739 E5.44167
G1 X138.87 Y39.235 E5.53574
G1 X140.332 Y40.004 E5.66761
G1 X141.323 Y40.624 E5.76092
G1 X142.02 Y41.134 E5.82986
G1 X142.53 Y41.541 E5.88194
G1 X142.956 Y41.851 E5.924
G1 X143.76 Y42.535 E6.00826
G1 X144.616 Y43.391 E6.1049
G1 X145.669 Y44.577 E6.2315
G1 X146.224 Y45.281 E6.30306
G1 X146.664 Y45.897 E6.36348
G1 X147.144 Y46.646 E6.4345
G1 X147.377 Y47.064 E6.4727
G1 X147.62 Y47.455 E6.50944
G1 X147.889 Y47.97 E6.55582
G1 X148.169 Y48.469 E6.6015
G1 X148.598 Y49.359 E6.68036
G1 X148.986 Y50.309 E6.76228
G1 X149.173 Y50.818 E6.80556
G1 X149.526 Y51.926 E6.89839
G1 X149.75 Y52.823 E6.97219
G1 X149.981 Y53.891 E7.05941
G1 X150.145 Y55.062 E7.1538
G1 X150.214 Y56.04 E7.23206
G1 X150.252 Y56.765 E7.29002
G1 X150.288 Y57.174 E7.32279
G1 X150.323 Y58.094 E7.39628
G1 X150.304 Y58.776 E7.45074
G1 X150.323 Y59.699 E7.52444
G1 X150.304 Y60.667 E7.60172
G1 X150.335 Y62.124 E7.71805
G1 X150.312 Y62.732 E7.76662
G1 X150.308 Y63.65 E7.8399
G1 X150.323 Y64.253 E7.88805
G1 X150.301 Y64.844 E7.93526
G1 X150.3 Y65.296 E7.97134
G1 X150.311 Y65.636 E7.99849
G1 X150.3 Y66.305 E8.0519
G1 X150.304 Y66.689 E8.08256
G1 X150.327 Y67.336 E8.13423
G1 X150.304 Y68.44 E8.22238
G1 X150.296 Y68.448 E8.22328
G1 X150.292 Y69.494 E8.30678
G1 X150.328 Y70.561 E8.392
G1 X150.331 Y70.96 E8.42385
G1 X150.308 Y71.78 E8.48933
G1 X150.32 Y72.5 E8.54681
G1 X150.32 Y73.54 E8.62983
G1 X150.335 Y74.014 E8.66769
G1 X150.3 Y75.12 E8.75602
G1 X150.311 Y76.825 E8.89212
G1 X150.292 Y77.88 E8.97635
G1 X150.296 Y78.443 E9.02129
G1 X150.311 Y78.799 E9.04973
G1 X150.3 Y79.875 E9.13563
G1 X150.331 Y81.162 E9.23839
G1 X150.312 Y81.815 E9.29054
G1 X150.315 Y82.469 E9.34275
G1 X150.288 Y83.916 E9.45827
G1 X150.324 Y84.825 E9.53089
G1 X150.324 Y85.144 E9.55635
G1 X150.308 Y85.54 E9.58799
G1 X150.311 Y86.157 E9.63724
G1 X150.296 Y87.036 E9.70742
G1 X150.304 Y88.27 E9.80592
G1 X150.284 Y88.993 E9.86366
G1 X150.311 Y89.748 E9.92396
G1 X150.304 Y92.471 E10.14133
G1 X150.284 Y92.943 E10.17904
G1 X150.288 Y93.488 E10.22254
G1 X150.327 Y94.831 E10.32979
G1 X150.304 Y96.373 E10.45289
G1 X150.327 Y97.36 E10.5317
G1 X150.308 Y100.004 E10.74276
G1 X150.323 Y100.538 E10.78541
G1 X150.28 Y102.322 E10.92785
G1 X150.316 Y103.117 E10.99138
G1 X150.323 Y103.585 E11.02874
G1 X150.308 Y104.095 E11.06947
G1 X150.319 Y104.949 E11.13765
G1 X150.312 Y105.603 E11.18985
G1 X150.335 Y106.371 E11.25119
G1 X150.3 Y107.457 E11.33792
G1 X150.272 Y107.911 E11.37423
G1 X150.268 Y108.738 E11.44024
G1 X150.32 Y110.233 E11.55965
G1 X150.327 Y111.626 E11.67085
G1 X150.296 Y112.538 E11.74369
G1 X150.288 Y113.094 E11.78808
G1 X150.315 Y114.061 E11.8653
G1 X150.296 Y114.768 E11.92176
G1 X150.316 Y115.425 E11.97423
G1 X150.323 Y116.328 E12.04631
G1 X150.292 Y117.034 E12.10272
G1 X150.292 Y117.421 E12.13361
G1 X150.276 Y117.911 E12.17275
G1 X150.311 Y119.401 E12.29172
G1 X150.284 Y120.417 E12.37285
G1 X150.292 Y121.496 E12.45898
G1 X150.327 Y122.468 E12.53662
G1 X150.304 Y123.845 E12.64655
G1 X150.323 Y125.05 E12.74275
G1 X150.304 Y126.687 E12.87343
G1 X150.307 Y127.24 E12.91758
G1 X150.288 Y128.308 E13.00284
G1 X150.303 Y129.007 E13.05865
G1 X150.292 Y130.195 E13.15349
G1 X150.311 Y131.254 E13.23804
G1 X150.3 Y132.307 E13.3221
G1 X150.307 Y132.977 E13.37558
G1 X150.3 Y133.923 E13.4511
G1 X150.272 Y134.689 E13.51228
G1 X150.319 Y135.949 E13.61293
G1 X150.3 Y137.078 E13.70307
G1 X150.304 Y137.79 E13.7599
G1 X150.288 Y139.191 E13.87174
G1 X150.268 Y139.864 E13.92549
G1 X150.292 Y140.654 E13.98858
G1 X150.327 Y142.767 E14.15727
G1 X150.292 Y143.672 E14.22957
G1 X150.288 Y144.554 E14.29997
G1 X150.324 Y145.528 E14.37777
G1 X150.324 Y146.416 E14.44866
G1 X150.3 Y147.974 E14.57304
G1 X150.284 Y148.442 E14.61042
G1 X150.292 Y149.408 E14.68753
G1 X150.324 Y150.027 E14.73701
G1 X150.324 Y150.597 E14.78251
G1 X150.312 Y150.983 E14.81334
G1 X150.327 Y153.088 E14.98137
G1 X150.312 Y153.713 E15.03127
G1 X150.327 Y154.574 E15.10001
G1 X150.288 Y156.029 E15.2162
G1 X150.3 Y156.573 E15.25964
G1 X150.307 Y157.979 E15.37187
G1 X150.292 Y159.005 E15.45378
G1 X150.315 Y160.047 E15.53698
G1 X150.304 Y160.468 E15.57059
G1 X150.319 Y162.312 E15.71779
G1 X150.264 Y163.92 E15.84623
G1 X150.159 Y164.949 E15.92879
G1 X149.852 Y166.714 E16.0718
G1 X149.622 Y167.657 E16.14928
G1 X149.401 Y168.369 E16.20879
G1 X149.222 Y169.022 E16.26284
G1 X148.886 Y169.951 E16.34169
G1 X148.661 Y170.5 E16.38906
G1 X148.301 Y171.287 E16.45814
G1 X147.739 Y172.369 E16.55546
G1 X147.199 Y173.312 E16.64221
G1 X146.651 Y174.129 E16.72073
G1 X146.061 Y174.887 E16.79741
G1 X145.348 Y175.726 E16.8853
G1 X145.091 Y176.005 E16.91558
G1 X144.702 Y176.46 E16.96336
G1 X144.046 Y177.155 E17.03965
G1 X143.259 Y177.88 E17.12507
G1 X142.413 Y178.557 E17.21156
G1 X141.195 Y179.441 E17.33169
G1 X140.382 Y179.958 E17.4086
G1 X139.448 Y180.456 E17.49309
G1 X137.935 Y181.129 E17.62528
G1 X136.943 Y181.554 E17.71142
G1 X135.998 Y181.884 E17.79133
G1 X135.804 Y181.931 E17.80726
G1 X134.532 Y182.3 E17.91298
G1 X133.67 Y182.494 E17.98351
G1 X132.591 Y182.654 E18.07058
G1 X131.929 Y182.717 E18.12367
G1 X131.022 Y182.788 E18.19629
G1 X128.151 Y182.819 E18.42548
G1 X127.191 Y182.776 E18.50219
G1 X126.608 Y182.792 E18.54874
G1 X125.56 Y182.8 E18.6324
G1 X124.939 Y182.827 E18.68202
G1 X123.261 Y182.792 E18.81599
G1 X121.831 Y182.803 E18.93014
G1 X121.269 Y182.792 E18.97501
G1 X120.4 Y182.792 E19.04438
G1 X120.073 Y182.808 E19.07051
G1 X119.027 Y182.812 E19.15401
G1 X118.483 Y182.803 E19.19744
G1 X117.554 Y182.828 E19.27162
G1 X116.466 Y182.828 E19.35847
G1 X116.111 Y182.804 E19.38688
G1 X115.445 Y182.808 E19.44004
G1 X114.692 Y182.828 E19.50017
G1 X113.799 Y182.835 E19.57145
G1 X112.987 Y182.816 E19.63629
G1 X112.021 Y182.823 E19.7134
G1 X111.405 Y182.804 E19.7626
G1 X110.714 Y182.807 E19.81776
G1 X109.318 Y182.788 E19.9292
G1 X106.719 Y182.823 E20.13668
G1 X106.183 Y182.788 E20.17956
G1 X105.489 Y182.78 E20.23496
G1 X104.781 Y182.807 E20.29152
G1 X104.292 Y182.804 E20.33055
G1 X103.73 Y182.823 E20.37544
G1 X102.589 Y182.812 E20.46652
G1 X101.368 Y182.827 E20.564
G1 X100.825 Y182.8 E20.6074
G1 X100.201 Y182.804 E20.65721
G1 X98.924 Y182.839 E20.75918
G1 X97.487 Y182.828 E20.87389
G1 X96.162 Y182.796 E20.97969
G1 X94.721 Y182.819 E21.09473
G1 X93.404 Y182.768 E21.19994
G1 X92.58 Y182.772 E21.26571
G1 X92.195 Y182.792 E21.29649
G1 X91.396 Y182.8 E21.36027
G1 X90.883 Y182.815 E21.40124
G1 X90.068 Y182.808 E21.4663
G1 X88.581 Y182.764 E21.58505
G1 X88.57 Y182.753 E21.58629
G1 X88.288 Y182.733 E21.60886
G1 X87.378 Y182.616 E21.6821
G1 X86.468 Y182.451 E21.75592
G1 X85.745 Y182.346 E21.81424
G1 X85.735 Y182.329 E21.81581
G1 X84.824 Y182.127 E21.8903
G1 X84.312 Y181.987 E21.93267
G1 X83.453 Y181.722 E22.00443
G1 X82.27 Y181.258 E22.10586
G1 X80.874 Y180.642 E22.22766
G1 X80.861 Y180.65 E22.22888
G1 X79.653 Y179.995 E22.33857
G1 X78.847 Y179.474 E22.41518
G1 X78.321 Y179.089 E22.46722
G1 X77.849 Y178.772 E22.5126
G1 X76.944 Y178.051 E22.60497
G1 X76.068 Y177.25 E22.69972
G1 X75.542 Y176.727 E22.75893
G1 X74.621 Y175.707 E22.86863
G1 X74.123 Y175.127 E22.92965
G1 X73.466 Y174.278 E23.01535
G1 X72.873 Y173.386 E23.10085
G1 X72.439 Y172.623 E23.17092
G1 X72.15 Y172.076 E23.2203
G1 X71.867 Y171.566 E23.26686
G1 X71.507 Y170.831 E23.33219
G1 X71.087 Y169.873 E23.41569
G1 X70.762 Y168.998 E23.4902
G1 X70.509 Y168.283 E23.55074
G1 X70.515 Y168.276 E23.55147
G1 X70.303 Y167.555 E23.61146
G1 X70.227 Y167.248 E23.63671
G1 X70.015 Y166.192 E23.72269
G1 X69.767 Y164.471 E23.86148
G1 X69.689 Y163.176 E23.96504
G1 X69.693 Y162.185 E24.04415
G1 X69.673 Y160.843 E24.15128
G1 X69.72 Y158.987 E24.29949
G1 X69.673 Y157.133 E24.44753
G1 X69.684 Y156.904 E24.46583
G1 X69.673 Y155.419 E24.58437
G1 X69.697 Y154.49 E24.65855
G1 X69.677 Y152.143 E24.84591
G1 X69.688 Y151.504 E24.89692
G1 X69.673 Y149.94 E25.02177
G1 X69.7 Y149.372 E25.06716
G1 X69.72 Y148.01 E25.1759
G1 X69.673 Y147.037 E25.25366
G1 X69.684 Y146.412 E25.30355
G1 X69.677 Y145.883 E25.34579
G1 X69.704 Y144.965 E25.4191
G1 X69.704 Y144.528 E25.45398
G1 X69.669 Y143.572 E25.53034
G1 X69.7 Y141.877 E25.66567
G1 X69.736 Y141.095 E25.72816
G1 X69.708 Y139.142 E25.88407
G1 X69.665 Y137.883 E25.98463
G1 X69.684 Y137.286 E26.03231
G1 X69.669 Y135.463 E26.17783
G1 X69.679 Y134.902 E26.22262
G1 X69.68 Y133.651 E26.32248
G1 X69.692 Y133.306 E26.35004
G1 X69.685 Y132.684 E26.39969
G1 X69.703 Y132.081 E26.44784
G1 X69.704 Y131.431 E26.49973
G1 X69.72 Y131.133 E26.52355
G1 X69.713 Y130.349 E26.58614
G1 X69.724 Y129.878 E26.62374
G1 X69.709 Y129.027 E26.69169
G1 X69.728 Y127.642 E26.80225
G1 X69.693 Y126.828 E26.86729
G1 X69.696 Y126.151 E26.92133
G1 X69.685 Y125.626 E26.96325
G1 X69.7 Y125.112 E27.0043
G1 X69.7 Y124.392 E27.06177
G1 X69.673 Y123.572 E27.12726
G1 X69.705 Y121.694 E27.27719
G1 X69.673 Y120.418 E27.37908
G1 X69.684 Y119.796 E27.42874
G1 X69.677 Y119.233 E27.47368
G1 X69.684 Y118.784 E27.50953
G1 X69.673 Y118.354 E27.54386
G1 X69.704 Y117.414 E27.61894
G1 X69.681 Y116.119 E27.72233
G1 X69.688 Y115.268 E27.79026
G1 X69.677 Y114.965 E27.81446
G1 X69.684 Y114.17 E27.87793
G1 X69.712 Y113.395 E27.93983
G1 X69.713 Y113.021 E27.96969
G1 X69.693 Y112.409 E28.01856
G1 X69.696 Y110.886 E28.14014
G1 X69.665 Y109.735 E28.23205
G1 X69.676 Y109.457 E28.25426
G1 X69.684 Y108.343 E28.34318
G1 X69.669 Y107.609 E28.40179
G1 X69.684 Y107.241 E28.43119
G1 X69.688 Y106.829 E28.46408
G1 X69.673 Y106.398 E28.4985
G1 X69.688 Y105.897 E28.53851
G1 X69.676 Y105.164 E28.59703
G1 X69.676 Y104.289 E28.66688
G1 X69.696 Y103.357 E28.74129
G1 X69.681 Y102.014 E28.8485
G1 X69.692 Y101.412 E28.89656
G1 X69.672 Y100.209 E28.9926
G1 X69.676 Y98.172 E29.15521
G1 X69.688 Y97.83 E29.18252
G1 X69.677 Y96.182 E29.31408
G1 X69.716 Y94.962 E29.41151
G1 X69.716 Y94.364 E29.45925
G1 X69.684 Y93.74 E29.50912
G1 X69.681 Y92.83 E29.58176
G1 X69.696 Y92.354 E29.61978
G1 X69.696 Y91.848 E29.66017
G1 X69.725 Y91.05 E29.72391
G1 X69.704 Y90.606 E29.75939
G1 X69.681 Y89.541 E29.84443
G1 X69.704 Y89.014 E29.88653
G1 X69.725 Y87.841 E29.98018
G1 X69.7 Y86.731 E30.06881
G1 X69.696 Y85.466 E30.16979
G1 X69.669 Y84.706 E30.23049
G1 X69.7 Y81.881 E30.45601
G1 X69.685 Y81.046 E30.52267
G1 X69.696 Y80.611 E30.55741
G1 X69.688 Y79.899 E30.61425
G1 X69.677 Y79.886 E30.61561
G1 X69.696 Y78.701 E30.71021
G1 X69.716 Y78.296 E30.74258
G1 X69.724 Y77.803 E30.78194
G1 X69.716 Y77.364 E30.81699
G1 X69.677 Y76.694 E30.87056
G1 X69.692 Y75.293 E30.9824
G1 X69.673 Y74.486 E31.04684
G1 X69.684 Y73.74 E31.10639
G1 X69.673 Y73.245 E31.14591
G1 X69.688 Y72.725 E31.18744
G1 X69.673 Y70.621 E31.35539
G1 X69.692 Y70.232 E31.38648
G1 X69.696 Y69.532 E31.44236
G1 X69.712 Y69.083 E31.47822
G1 X69.681 Y68.078 E31.55849
G1 X69.692 Y67.631 E31.59418
G1 X69.673 Y66.273 E31.70259
G1 X69.7 Y65.525 E31.76234
G1 X69.685 Y64.346 E31.85646
G1 X69.692 Y63.059 E31.95919
G1 X69.685 Y62.719 E31.98634
G1 X69.707 Y62.061 E32.03889
G1 X69.716 Y61.273 E32.1018
G1 X69.7 Y60.813 E32.13854
G1 X69.68 Y60.592 E32.15625
G1 X69.673 Y59.585 E32.23664
G1 X69.696 Y59.125 E32.2734
G1 X69.704 Y58.603 E32.31508
G1 X69.697 Y58.37 E32.33369
G1 X69.704 Y57.296 E32.41942
G1 X69.739 Y56.813 E32.45807
G1 X69.752 Y56.25 E32.50303
G1 X69.838 Y55.25 E32.58315
G1 X69.94 Y54.53 E32.64119
G1 X70.066 Y53.798 E32.70048
G1 X70.227 Y53.007 E32.76492
G1 X70.46 Y52.028 E32.84525
G1 X70.726 Y51.064 E32.92508
G1 X71.026 Y50.209 E32.99741
G1 X71.017 Y50.196 E32.99867
G1 X71.533 Y49.023 E33.10096
G1 X72.416 Y47.327 E33.25359
G1 X72.99 Y46.398 E33.34076
G0 F12000 X73.51 Y46.357
G1 F1800 X149.922 Y122.769 E41.96681
G1 F2400 E41.16681
G0 F12000 X149.923 Y125.033
G1 F2400 E41.96681
G1 F1800 X72.643 Y47.753 E50.69084
G0 F12000 X71.872 Y49.244
G1 F1800 X149.907 Y127.279 E59.50011
G1 F2400 E58.70011
G0 F12000 X149.899 Y129.534
G1 F2400 E59.50011
G1 F1800 X71.223 Y50.858 E68.38174
G0 F12000 X70.728 Y52.626
G1 F1800 X149.906 Y131.804 E77.32003
G1 F2400 E76.52003
G0 F12000 X149.895 Y134.056
G1 F2400 E77.32003
G1 F1800 X70.349 Y54.509 E86.29993
G1 F2400 E85.49993
G0 F12000 X70.144 Y56.568
G1 F2400 E86.29993
G1 F1800 X149.912 Y136.336 E95.30483
G1 F2400 E94.50483
G0 F12000 X149.895 Y138.582
G1 F2400 E95.30483
G1 F1800 X70.1 Y58.787 E104.31278
G1 F2400 E103.51278
G0 F12000 X70.108 Y61.057
G1 F2400 E104.31278
G1 F1800 X149.895 Y140.844 E113.31983
G1 F2400 E112.51983
G0 F12000 X149.914 Y143.125
G1 F2400 E113.31983
G1 F1800 X70.091 Y63.302 E122.33094
G1 F2400 E121.53094
G0 F12000 X70.098 Y65.573
G1 F2400 E122.33094
G1 F1800 X149.919 Y145.393 E131.34176
G1 F2400 E130.54176
G0 F12000 X149.906 Y147.643
G1 F2400 E131.34176
G1 F1800 X70.087 Y67.824 E140.35242
G1 F2400 E139.55242
G0 F12000 X70.093 Y70.093
G1 F2400 E140.35242
G1 F1800 X149.918 Y149.918 E149.36376
G1 F2400 E148.56376
G0 F12000 X149.921 Y152.184
G1 F2400 E149.36376
G1 F1800 X70.085 Y72.348 E158.37634
G1 F2400 E157.57634
G0 F12000 X70.075 Y74.6
G1 F2400 E158.37634
G1 F1800 X149.925 Y154.451 E167.39055
G1 F2400 E166.59055
G0 F12000 X149.901 Y156.689
G1 F2400 E167.39055
G1 F1800 X70.088 Y76.876 E176.40053
G1 F2400 E175.60053
G0 F12000 X70.089 Y79.14
