;FLAVOR:Marlin
;TIME:11376
;Filament used: 10.8615m
;Layer height: 0.2
;MINX:69.4
;MINY:36.901
;MINZ:0.24
;MAXX:150.595
;MAXY:183.096
;MAXZ:8.09
;TARGET_MACHINE.NAME:Creality Ender-3 V3 KE
;Generated with Cura_SteamEngine 5.9.0
M140 S70
M105
M190 S70
M82 ;absolute extrusion mode
M220 S100 ;Reset Feedrate
M221 S100 ;Reset Flowrate

G28 ;Home

G92 E0 ;Reset Extruder
G1 Z2.0 F3000 ;Move Z Axis up
G1 X-2.0 Y20 Z0.28 F5000.0 ;Move to start position
M109 S220.0
G1 X-2.0 Y145.0 Z0.28 F1500.0 E15 ;Draw the first line
G1 X-1.7 Y145.0 Z0.28 F5000.0 ;Move to side a little
G1 X-1.7 Y20 Z0.28 F1500.0 E30 ;Draw the second line
G92 E0 ;Reset Extruder
G1 E-1 F1800 ;Retract a bit
G1 Z2.0 F3000 ;Move Z Axis up
G1 E0 F1800
G92 E0
G92 E0
G1 F2400 E-0.8
;LAYER_COUNT:35
;LAYER:-6
M107
G0 F9000 X72.554 Y46.551 Z0.24
;TYPE:SUPPORT-INTERFACE
G1 F2400 E0
G1 F1350 X73.097 Y45.728 E0.07871
G1 X73.417 Y45.288 E0.12214
G1 X74.033 Y44.49 E0.20261
G1 X74.3 Y44.165 E0.23618
G1 X74.982 Y43.401 E0.31793
G1 X75.2 Y43.175 E0.343
G1 X76.008 Y42.387 E0.43309
G1 X76.266 Y42.148 E0.46116
G1 X77.054 Y41.478 E0.54373
G1 X77.387 Y41.215 E0.5776
G1 X78.325 Y40.529 E0.67036
G1 X79.349 Y39.866 E0.76774
G1 X79.799 Y39.606 E0.80922
G1 X80.945 Y38.992 E0.91301
G1 X81.941 Y38.545 E1.00015
G1 X82.446 Y38.341 E1.04363
G1 X83.148 Y38.077 E1.10349
G1 X83.635 Y37.909 E1.14462
G1 X84.517 Y37.646 E1.21809
G1 X85.003 Y37.517 E1.25822
G1 X86.086 Y37.276 E1.34679
G1 X86.465 Y37.203 E1.3776
G1 X87.921 Y37.011 E1.49483
G1 X88.989 Y36.928 E1.58034
G1 X90.026 Y36.901 E1.66314
G1 X130.194 Y36.904 E4.86953
G1 X131.018 Y36.928 E4.93533
G1 X131.346 Y36.947 E4.96156
G1 X132.356 Y37.038 E5.0425
G1 X132.834 Y37.1 E5.08098
G1 X134.088 Y37.305 E5.18241
G1 X135.327 Y37.604 E5.28415
G1 X135.687 Y37.704 E5.31398
G1 X136.443 Y37.937 E5.37712
G1 X137.108 Y38.167 E5.43329
G1 X138.065 Y38.549 E5.51554
G1 X138.452 Y38.72 E5.54932
G1 X139.411 Y39.182 E5.63429
G1 X139.858 Y39.419 E5.67468
G1 X140.69 Y39.896 E5.75123
G1 X140.999 Y40.089 E5.78031
G1 X141.836 Y40.642 E5.86039
G1 X142.82 Y41.383 E5.95872
G1 X143.173 Y41.67 E5.99503
G1 X144.002 Y42.396 E6.083
G1 X144.216 Y42.599 E6.10654
G1 X145.034 Y43.425 E6.19934
G1 X145.301 Y43.714 E6.23075
G1 X145.923 Y44.44 E6.30706
G1 X146.246 Y44.844 E6.34835
G1 X146.859 Y45.67 E6.43046
G1 X147.078 Y45.986 E6.46115
G1 X147.658 Y46.901 E6.54762
G1 X147.855 Y47.237 E6.57871
G1 X148.353 Y48.153 E6.66194
G1 X148.503 Y48.454 E6.68879
G1 X148.937 Y49.397 E6.77165
G1 X149.079 Y49.739 E6.80121
G1 X149.564 Y51.051 E6.91287
G1 X149.87 Y52.079 E6.99848
G1 X149.978 Y52.509 E7.03387
G1 X150.223 Y53.608 E7.12376
G1 X150.289 Y53.965 E7.15274
G1 X150.447 Y55.044 E7.23978
G1 X150.485 Y55.387 E7.26733
G1 X150.564 Y56.386 E7.34733
G1 X150.595 Y57.45 E7.43229
G1 X150.592 Y162.74 E15.837
G1 X150.548 Y163.898 E15.9295
G1 X150.474 Y164.725 E15.99578
G1 X150.415 Y165.199 E16.03391
G1 X150.214 Y166.427 E16.13324
G1 X150.125 Y166.856 E16.16821
G1 X149.865 Y167.925 E16.25603
G1 X149.721 Y168.427 E16.29772
G1 X149.532 Y169.013 E16.34687
G1 X149.54 Y169.023 E16.34789
G1 X149.365 Y169.51 E16.3892
G1 X148.962 Y170.526 E16.47645
G1 X148.756 Y171.001 E16.51778
G1 X148.322 Y171.903 E16.59768
G1 X148.129 Y172.266 E16.6305
G1 X147.615 Y173.168 E16.71337
G1 X147.434 Y173.464 E16.74106
G1 X146.875 Y174.303 E16.82154
G1 X146.512 Y174.803 E16.87086
G1 X145.972 Y175.497 E16.94105
G1 X145.628 Y175.91 E16.98396
G1 X144.997 Y176.617 E17.0596
G1 X144.234 Y177.38 E17.14574
G1 X143.828 Y177.758 E17.19002
G1 X143.057 Y178.431 E17.27171
G1 X142.614 Y178.777 E17.31658
G1 X141.805 Y179.373 E17.39679
G1 X141.373 Y179.665 E17.43841
G1 X140.539 Y180.191 E17.51712
G1 X139.583 Y180.722 E17.60441
G1 X139.026 Y181.007 E17.65436
G1 X137.965 Y181.488 E17.74735
G1 X137.539 Y181.663 E17.78411
G1 X136.671 Y181.982 E17.85793
G1 X136.299 Y182.106 E17.88923
G1 X135.491 Y182.346 E17.95651
G1 X134.993 Y182.479 E17.99766
G1 X134.074 Y182.684 E18.07282
G1 X133.532 Y182.789 E18.11689
G1 X132.514 Y182.938 E18.19902
G1 X131.784 Y183.013 E18.2576
G1 X130.988 Y183.072 E18.32131
G1 X129.991 Y183.096 E18.40092
G1 X89.792 Y183.096 E21.60978
G1 X88.821 Y183.06 E21.68734
G1 X88.343 Y183.029 E21.72558
G1 X87.207 Y182.907 E21.81678
G1 X86.26 Y182.75 E21.8934
G1 X85.832 Y182.664 E21.92825
G1 X84.793 Y182.428 E22.0133
G1 X84.273 Y182.277 E22.05652
G1 X83.245 Y181.952 E22.14259
G1 X82.815 Y181.798 E22.17905
G1 X81.732 Y181.364 E22.27218
G1 X80.706 Y180.883 E22.36263
G1 X79.478 Y180.206 E22.47457
G1 X79.108 Y179.978 E22.50926
G1 X78.199 Y179.378 E22.5962
G1 X77.195 Y178.632 E22.69605
G1 X76.867 Y178.366 E22.72976
G1 X75.918 Y177.528 E22.83082
G1 X75.724 Y177.345 E22.8521
G1 X74.908 Y176.517 E22.9449
G1 X74.59 Y176.164 E22.98283
G1 X74.029 Y175.505 E23.05191
G1 X73.777 Y175.191 E23.08405
G1 X73.249 Y174.481 E23.15468
G1 X72.996 Y174.12 E23.18987
G1 X72.397 Y173.193 E23.27797
G1 X72.152 Y172.778 E23.31644
G1 X71.696 Y171.947 E23.3921
G1 X71.498 Y171.544 E23.42794
G1 X71.052 Y170.572 E23.51331
G1 X70.854 Y170.087 E23.55513
G1 X70.495 Y169.105 E23.63859
G1 X70.351 Y168.667 E23.67539
G1 X70.012 Y167.469 E23.77478
G1 X69.788 Y166.467 E23.85674
G1 X69.711 Y166.058 E23.88996
G1 X69.526 Y164.749 E23.99549
G1 X69.428 Y163.535 E24.09271
G1 X69.4 Y162.538 E24.17233
G1 X69.404 Y57.286 E32.574
G1 X69.436 Y56.226 E32.65865
G1 X69.558 Y54.971 E32.7593
G1 X69.608 Y54.602 E32.78902
G1 X69.825 Y53.349 E32.89053
G1 X69.894 Y53.027 E32.91682
G1 X70.139 Y52.043 E32.99776
G1 X70.247 Y51.657 E33.02976
G1 X70.571 Y50.667 E33.11291
G1 X70.726 Y50.24 E33.14917
G1 X71.151 Y49.185 E33.23996
G1 X71.595 Y48.254 E33.3223
G1 X71.757 Y47.938 E33.35064
G1 X72.358 Y46.875 E33.44812
G1 X72.554 Y46.551 E33.47835
G0 F9000 X73.299 Y46.146
G1 F1350 X150.193 Y123.04 E42.15881
G1 F2400 E41.35881
G0 F9000 X150.193 Y125.303
G1 F2400 E42.15881
G1 F1350 X72.437 Y47.547 E50.93658
G0 F9000 X71.664 Y49.036
G1 F1350 X150.193 Y127.566 E59.80166
G1 F2400 E59.00166
G0 F9000 X150.193 Y129.828
G1 F2400 E59.80166
G1 F1350 X71.006 Y50.641 E68.74098
G0 F9000 X70.47 Y52.368
G1 F1350 X150.193 Y132.091 E77.7408
G1 F2400 E76.9408
G0 F9000 X150.193 Y134.354
G1 F2400 E77.7408
G1 F1350 X70.076 Y54.237 E86.7851
G1 F2400 E85.9851
G0 F9000 X69.834 Y56.257
G1 F2400 E86.7851
G1 F1350 X150.192 Y136.616 E95.85666
G1 F2400 E95.05666
G0 F9000 X150.192 Y138.879
G1 F2400 E95.85666
G1 F1350 X69.803 Y58.489 E104.93172
G1 F2400 E104.13172
G0 F9000 X69.803 Y60.752
G1 F2400 E104.93172
G1 F1350 X150.192 Y141.141 E114.00673
G1 F2400 E113.20673
G0 F9000 X150.192 Y143.404
G1 F2400 E114.00673
G1 F1350 X69.803 Y63.015 E123.08173
G1 F2400 E122.28173
G0 F9000 X69.803 Y65.277
G1 F2400 E123.08173
G1 F1350 X150.192 Y145.667 E132.15679
G1 F2400 E131.35679
G0 F9000 X150.192 Y147.93
G1 F2400 E132.15679
G1 F1350 X69.803 Y67.54 E141.23185
G1 F2400 E140.43185
G0 F9000 X69.803 Y69.803
G1 F2400 E141.23185
G1 F1350 X150.192 Y150.192 E150.30686
G1 F2400 E149.50686
G0 F9000 X150.192 Y152.455
G1 F2400 E150.30686
G1 F1350 X69.803 Y72.065 E159.38192
G1 F2400 E158.58192
G0 F9000 X69.803 Y74.328
G1 F2400 E159.38192
G1 F1350 X150.192 Y154.718 E168.45698
G1 F2400 E167.65698
G0 F9000 X150.192 Y156.981
G1 F2400 E168.45698
G1 F1350 X69.803 Y76.591 E177.53204
G1 F2400 E176.73204
G0 F9000 X69.803 Y78.854
G1 F2400 E177.53204
G1 F1350 X150.192 Y159.243 E186.60705
G1 F2400 E185.80705
G0 F9000 X150.192 Y161.506
G1 F2400 E186.60705
G1 F1350 X69.803 Y81.116 E195.68211
G1 F2400 E194.88211
G0 F9000 X69.803 Y83.379
G1 F2400 E195.68211
G1 F1350 X150.155 Y163.731 E204.75294
G1 F2400 E203.95294
G0 F9000 X149.918 Y165.757
G1 F2400 E204.75294
G1 F1350 X69.802 Y85.641 E213.79712
G1 F2400 E212.99712
G0 F9000 X69.802 Y87.904
G1 F2400 E213.79712
G1 F1350 X149.526 Y167.627 E222.797
G0 F9000 X148.995 Y169.36
G1 F1350 X69.802 Y90.167 E231.73699
G1 F2400 E230.93699
G0 F9000 X69.802 Y92.429
G1 F2400 E231.73699
G1 F1350 X148.333 Y170.96 E240.60225
G0 F9000 X147.563 Y172.453
G1 F1350 X69.802 Y94.692 E249.38058
G1 F2400 E248.58058
G0 F9000 X69.802 Y96.955
G1 F2400 E249.38058
G1 F1350 X146.697 Y173.85 E258.06116
G0 F9000 X145.735 Y175.151
G1 F1350 X69.802 Y99.218 E266.63313
G1 F2400 E265.83313
G0 F9000 X69.802 Y101.48
G1 F2400 E266.63313
G1 F1350 X144.685 Y176.363 E275.08657
G0 F9000 X143.538 Y177.48
G1 F1350 X69.802 Y103.743 E283.41058
G1 F2400 E282.61058
G0 F9000 X69.802 Y106.006
G1 F2400 E283.41058
G1 F1350 X142.304 Y178.508 E291.59524
G0 F9000 X140.975 Y179.442
G1 F1350 X69.802 Y108.269 E299.62986
G1 F2400 E298.82986
G0 F9000 X69.801 Y110.531
G1 F2400 E299.62986
G1 F1350 X139.552 Y180.281 E307.5039
G0 F9000 X138.028 Y181.02
G1 F1350 X69.801 Y112.793 E315.20595
G1 F2400 E314.40595
G0 F9000 X69.801 Y115.056
G1 F2400 E315.20595
G1 F1350 X136.396 Y181.651 E322.72377
G0 F9000 X134.632 Y182.149
G1 F1350 X69.801 Y117.319 E330.0424
G1 F2400 E329.2424
G0 F9000 X69.801 Y119.582
G1 F2400 E330.0424
G1 F1350 X132.723 Y182.503 E337.14552
G1 F2400 E336.34552
G0 F9000 X130.637 Y182.68
G1 F2400 E337.14552
G1 F1350 X69.801 Y121.844 E344.01321
G1 F2400 E343.21321
G0 F9000 X69.801 Y124.107
G1 F2400 E344.01321
G1 F1350 X128.39 Y182.696 E350.62725
G1 F2400 E349.82725
G0 F9000 X126.127 Y182.696
G1 F2400 E350.62725
G1 F1350 X69.801 Y126.37 E356.98581
G1 F2400 E356.18581
G0 F9000 X69.801 Y128.633
G1 F2400 E356.98581
G1 F1350 X123.865 Y182.696 E363.08897
G1 F2400 E362.28897
G0 F9000 X121.602 Y182.696
G1 F2400 E363.08897
G1 F1350 X69.801 Y130.895 E368.93671
G1 F2400 E368.13671
G0 F9000 X69.801 Y133.158
G1 F2400 E368.93671
G1 F1350 X119.339 Y182.696 E374.52899
G1 F2400 E373.72899
G0 F9000 X117.076 Y182.696
G1 F2400 E374.52899
G1 F1350 X69.801 Y135.421 E379.8658
G1 F2400 E379.0658
G0 F9000 X69.801 Y137.683
G1 F2400 E379.8658
G1 F1350 X114.814 Y182.696 E384.94726
G1 F2400 E384.14726
G0 F9000 X112.551 Y182.696
G1 F2400 E384.94726
G1 F1350 X69.801 Y139.946 E389.77325
G1 F2400 E388.97325
G0 F9000 X69.801 Y142.208
G1 F2400 E389.77325
G1 F1350 X110.288 Y182.696 E394.34382
G1 F2400 E393.54382
G0 F9000 X108.025 Y182.696
G1 F2400 E394.34382
G1 F1350 X69.801 Y144.471 E398.65894
G1 F2400 E397.85894
G0 F9000 X69.801 Y146.734
G1 F2400 E398.65894
G1 F1350 X105.763 Y182.696 E402.71864
G1 F2400 E401.91864
G0 F9000 X103.5 Y182.696
G1 F2400 E402.71864
G1 F1350 X69.801 Y148.997 E406.52287
G1 F2400 E405.72287
G0 F9000 X69.801 Y151.259
G1 F2400 E406.52287
G1 F1350 X101.237 Y182.696 E410.0717
G1 F2400 E409.2717
G0 F9000 X98.974 Y182.696
G1 F2400 E410.0717
G1 F1350 X69.801 Y153.522 E413.36505
G1 F2400 E412.56505
G0 F9000 X69.801 Y155.785
G1 F2400 E413.36505
G1 F1350 X96.712 Y182.696 E416.403
G1 F2400 E415.603
G0 F9000 X94.449 Y182.696
G1 F2400 E416.403
G1 F1350 X69.801 Y158.048 E419.18548
G1 F2400 E418.38548
G0 F9000 X69.801 Y160.31
G1 F2400 E419.18548
G1 F1350 X92.186 Y182.696 E421.71255
G1 F2400 E420.91255
G0 F9000 X89.923 Y182.696
G1 F2400 E421.71255
G1 F1350 X69.801 Y162.574 E423.98409
G1 F2400 E423.18409
G0 F9000 X69.965 Y165
G1 F2400 E423.98409
G1 F1350 X87.5 Y182.535 E425.96359
G1 F2400 E425.16359
G0 F9000 X84.681 Y181.979
G1 F2400 E425.96359
G1 F1350 X70.529 Y167.827 E427.56119
G1 F2400 E426.76119
G0 F9000 X71.906 Y171.466
G1 F2400 E427.56119
G1 F1350 X81.034 Y180.595 E428.5917
G1 F2400 E427.7917
G0 F9000 X150.193 Y120.777
G1 F2400 E428.5917
G1 F1350 X74.262 Y44.847 E437.16339
G0 F9000 X75.313 Y43.634
G1 F1350 X150.193 Y118.515 E445.61655
G1 F2400 E444.81655
G0 F9000 X150.193 Y116.252
G1 F2400 E445.61655
G1 F1350 X76.459 Y42.518 E453.94028
G0 F9000 X77.691 Y41.487
G1 F1350 X150.193 Y113.989 E462.12493
G1 F2400 E461.32493
G0 F9000 X150.193 Y111.726
G1 F2400 E462.12493
G1 F1350 X79.021 Y40.555 E470.15938
G0 F9000 X80.444 Y39.715
G1 F1350 X150.194 Y109.464 E478.03331
G1 F2400 E477.23331
G0 F9000 X150.194 Y107.202
G1 F2400 E478.03331
G1 F1350 X81.966 Y38.974 E485.73548
G0 F9000 X83.599 Y38.344
G1 F1350 X150.194 Y104.939 E493.2533
G1 F2400 E492.4533
G0 F9000 X150.194 Y102.676
G1 F2400 E493.2533
G1 F1350 X85.365 Y37.847 E500.57175
G0 F9000 X87.28 Y37.499
G1 F1350 X150.194 Y100.413 E507.67403
G1 F2400 E506.87403
G0 F9000 X150.194 Y98.151
G1 F2400 E507.67403
G1 F1350 X89.361 Y37.318 E514.54138
G1 F2400 E513.74138
G0 F9000 X91.607 Y37.301
G1 F2400 E514.54138
G1 F1350 X150.194 Y95.888 E521.15519
G1 F2400 E520.35519
G0 F9000 X150.194 Y93.625
G1 F2400 E521.15519
G1 F1350 X93.87 Y37.301 E527.51353
G1 F2400 E526.71353
G0 F9000 X96.133 Y37.301
G1 F2400 E527.51353
G1 F1350 X150.194 Y91.362 E533.6164
G1 F2400 E532.8164
G0 F9000 X150.194 Y89.1
G1 F2400 E533.6164
G1 F1350 X98.396 Y37.302 E539.46381
G1 F2400 E538.66381
G0 F9000 X100.659 Y37.302
G1 F2400 E539.46381
G1 F1350 X150.194 Y86.837 E545.05575
G1 F2400 E544.25575
G0 F9000 X150.194 Y84.574
G1 F2400 E545.05575
G1 F1350 X102.922 Y37.302 E550.39222
G1 F2400 E549.59222
G0 F9000 X105.184 Y37.302
G1 F2400 E550.39222
G1 F1350 X150.194 Y82.312 E555.47334
G1 F2400 E554.67334
G0 F9000 X150.194 Y80.049
G1 F2400 E555.47334
G1 F1350 X107.448 Y37.303 E560.29888
G1 F2400 E559.49888
G0 F9000 X109.71 Y37.303
G1 F2400 E560.29888
G1 F1350 X150.194 Y77.787 E564.86906
G1 F2400 E564.06906
G0 F9000 X150.194 Y75.524
G1 F2400 E564.86906
G1 F1350 X111.973 Y37.303 E569.18378
G1 F2400 E568.38378
G0 F9000 X114.237 Y37.303
G1 F2400 E569.18378
G1 F1350 X150.194 Y73.261 E573.24297
G1 F2400 E572.44297
G0 F9000 X150.194 Y70.998
G1 F2400 E573.24297
G1 F1350 X116.499 Y37.303 E577.04675
G1 F2400 E576.24675
G0 F9000 X118.762 Y37.303
G1 F2400 E577.04675
G1 F1350 X150.194 Y68.736 E580.59513
G1 F2400 E579.79513
G0 F9000 X150.194 Y66.473
G1 F2400 E580.59513
G1 F1350 X121.025 Y37.303 E583.88803
G1 F2400 E583.08803
G0 F9000 X123.288 Y37.304
G1 F2400 E583.88803
G1 F1350 X150.194 Y64.21 E586.92541
G1 F2400 E586.12541
G0 F9000 X150.194 Y61.948
G1 F2400 E586.92541
G1 F1350 X125.551 Y37.304 E589.70738
G1 F2400 E588.90738
G0 F9000 X127.814 Y37.304
G1 F2400 E589.70738
G1 F1350 X150.194 Y59.685 E592.23389
G1 F2400 E591.43389
G0 F9000 X150.194 Y57.421
G1 F2400 E592.23389
G1 F1350 X130.077 Y37.304 E594.50487
G1 F2400 E593.70487
G0 F9000 X132.496 Y37.46
G1 F2400 E594.50487
G1 F1350 X150.036 Y55.001 E596.48499
G1 F2400 E595.68499
G0 F9000 X149.485 Y52.187
G1 F2400 E596.48499
G1 F1350 X135.313 Y38.015 E598.08485
G1 F2400 E597.28485
G0 F9000 X138.979 Y39.418
G1 F2400 E598.08485
G1 F1350 X148.097 Y48.537 E599.11422
M104 S220
G1 F2400 E598.31422
G0 F300 X148.097 Y48.537 Z0.54
G0 F9000 X72.464 Y47.744
;TIME_ELAPSED:358.902239
;LAYER:-5
;TYPE:SUPPORT
G1 F2400 E599.11422
G1 F1350 X80.548 Y39.66 E600.25496
G1 X79.991 Y39.959 E600.31804
G1 X79.631 Y40.169 E600.35963
G1 X78.854 Y40.658 E600.45123
G1 X78.565 Y40.853 E600.48602
G1 X77.646 Y41.523 E600.5995
G1 X77.303 Y41.794 E600.64312
G1 X76.534 Y42.448 E600.74385
G1 X76.279 Y42.68 E600.77825
G1 X75.495 Y43.446 E600.88761
G1 X75.282 Y43.669 E600.91839
G1 X74.592 Y44.442 E601.02177
G1 X74.355 Y44.727 E601.05876
G1 X73.74 Y45.525 E601.15929
G1 X73.427 Y45.96 E601.21276
G1 X73.097 Y46.458 E601.27237
G1 X73.301 Y46.559 E601.29508
G1 X72.673 Y47.189 E601.38384
G1 X72.464 Y47.744 E601.44302
G1 X72.155 Y48.054 E601.48669
G1 X71.918 Y48.505 E601.53753
G1 X71.521 Y49.349 E601.63059
G1 X71.008 Y50.614 E601.7668
G1 X83.097 Y38.525 E603.47269
G1 X83.72 Y38.308 E603.53851
G1 X84.717 Y38.008 E603.6424
G1 X85.138 Y37.898 E603.68582
G1 X70.407 Y52.63 E605.76459
G1 X70.283 Y53.124 E605.81541
G1 X70.219 Y53.429 E605.84651
G1 X70.047 Y54.403 E605.9452
G1 X86.9 Y37.551 E608.32327
G1 X87.558 Y37.453 E608.38965
G1 X87.937 Y37.411 E608.4277
G1 X88.497 Y37.368 E608.48374
G1 X69.861 Y56.004 E611.11348
G1 X69.832 Y56.3 E611.14315
G1 X69.956 Y57.179 E611.23173
G1 X69.808 Y57.179 E611.2465
G1 X69.808 Y57.472 E611.27573
G1 X89.977 Y37.303 E614.1218
G1 X91.392 Y37.301 E614.26299
G1 X69.808 Y58.886 E617.30879
G1 X69.808 Y60.3 E617.44988
G1 X92.806 Y37.301 E620.69522
G1 X94.221 Y37.301 E620.83641
G1 X69.808 Y61.714 E624.28135
G1 X69.808 Y63.128 E624.42244
G1 X95.635 Y37.301 E628.0669
G1 X97.049 Y37.301 E628.20799
G1 X69.808 Y64.543 E632.05206
G1 X69.808 Y65.957 E632.19315
G1 X98.463 Y37.301 E636.23675
G1 X99.877 Y37.301 E636.37784
G1 X69.808 Y67.371 E640.62097
G1 X69.807 Y68.786 E640.76216
