;FLAVOR:Marlin
;TIME:11603
;Filament used:5.21138m
;Layer height: 0.15
;MINX:79.255
;MINY:96.7
;MINZ:0.18
;MAXX:140.745
;MAXY:122.988
;MAXZ:117.83
                            
;Creality Print GCode Generated by CXEngineDEV
;Generated Time:2022-06-30 15:03:09
;----------Machine Config--------------
;Machine Name:Creality Ender-3
;Machine Height:250
;Machine Width:220
;Machine Depth:220
;Material name:cxsw
;Number of Extruders:1
;ExtruderParams[0] Nozzle Diameter1000
;----------Profile Config---------------
;Layer Height:0.15
;Wall Thickness:0.8
;Top/Bottom Thickness:1
;Out Wall Line Width:0.4
;Inner Wall Line Width:0.4
;Inital Layer Height:150
;Wall Line Count:2
;Infill Line Distance:4
;Infill Pattern:grid
;Infill Sparse Density:20
;Infill Wipe Distance:0
;Print Temperature:200
;Bed Temperature:60
;Support Enable:false
;Support Density:30
;Support Angle:1.0472
;Adhesion Type:simpleraft
;machine is belt:false
;machine belt offset:10
;machine belt offset Y:0
;Raft Base Line Spacing:1.6
;Wait Heatup Sync:true
;----------Shell Config----------------
;Outer Wall Wipe Distance:200
;Infill Before Walls:false
;Infill Overlap:0.16
;Fill Gaps Between Walls:everywhere
;Minimum Infill Area:1
;Top Surface Skin Layer:0
;Top Layers:4
;Z Seam Alignment:sharpest_corner
;Seam Corner Preference:z_seam_corner_inner
;Z Seam X:110
;Z Seam Y:110
;Horizontal Expansion:0
;Top/Bottom Pattern:zigzag
;Ironing Pattern:zigzag
;Vase Model:false
;----------Support Config----------------
;Support Type:everywhere
;Support Pattern:zigzag
;Support Infill Layer Thickness:0.15
;Minimum Support Area:5
;Enable Support Roof:false
;Support Roof Thickness:0.8
;Support Roof Pattern:lines
;Connect Support Lines:0
;Connect Support ZigZags:1
;Minimum Support X/Y Distance:0.2
;Support Line Distance:1.33
; ---------PrintSpeed & Travel----------
;Enable Print Cool:true
;Avoid Printed Parts Traveling:true
;Enable Retraction:true
;Retraction Distance:8
;Retraction Speed:100
;Retraction Prime Speed:100
;Maximum Retraction Count:100
;Minimum Extrusion Distance Window:1
;Z Hop When Retracted:false
;Z Hop Height:0.2
;Retract Before Outer Wall:true
;Print Speed:50
;Infill Speed:50

;Prime Tower Speed:50
;Travel Speed:120
;Initial Layer Speed:25
;Skirt/Brim Speed:25
;Combing Mode:off
; --------SpecialModel&Mesh Fixes--------
;Union Overlapping Volum:true
;Remove All Holes:false
;Maximum Travel Resolution:0.6
;Maximum Deviation:0.05
;Maximum Model Angle:0.872665
;IS Mold Print:false
;Make Overhang Printable:false
;Enable Coasting:false
;Coasting Volumes:0.06
;Coasting Speed:0.9
;Raft AirGap:0.25
;Layer0 ZOverLap:0.13
;---------------------End of Head--------------------------
M140 S60
M105
M104 S200
M105
M109 S200
M105
M190 S60
M82 ;absolute extrusion mode
M220 S100 ;Reset Feedrate
M221 S100 ;Reset Flowrate

G28 ;Home

G92 E0 ;Reset Extruder
G1 Z2.0 F3000 ;Move Z Axis up
G1 X10.1 Y20 Z0.28 F5000.0 ;Move to start position
G1 X10.1 Y145.0 Z0.28 F1500.0 E15 ;Draw the first line
G1 X10.4 Y145.0 Z0.28 F5000.0 ;Move to side a little
G1 X10.4 Y20 Z0.28 F1500.0 E30 ;Draw the second line
G92 E0  ;Reset Extruder
G1 E-1.0000 F1800 ;Retract a bit
G1 Z2.0 F3000 ;Move Z Axis up
G1 E0.0000 F1800 

G92 E0
G92 E0
G1 F6000 E-8

;LAYER_COUNT:780

;LAYER:-4
M107
G0 F7200 X81.6 Y101.119 Z0.18
;TYPE:SUPPORT-INTERFACE
G1 F6000 E0
G1 F1200 X81.6 Y118.309 E1.13205
G1 X81.291 Y117.852 E1.16838
G1 X81.195 Y117.689 E1.18084
G1 X80.653 Y116.645 E1.2583
G1 X80.384 Y115.961 E1.30671
G1 X80.317 Y115.767 E1.32022
G1 X80.142 Y115.163 E1.36163
G1 X80.095 Y114.97 E1.37472
G1 X80 Y114.488 E1.40707
G1 X80 Y104.902 E2.03835
G1 X80.026 Y104.757 E2.04806
G1 X80.159 Y104.171 E2.08763
G1 X80.209 Y103.987 E2.10019
G1 X80.415 Y103.351 E2.14421
G1 X80.467 Y103.208 E2.15423
G1 X80.722 Y102.609 E2.1971
G1 X80.797 Y102.455 E2.20839
G1 X81.099 Y101.889 E2.25063
G1 X81.208 Y101.706 E2.26466
G1 X81.531 Y101.215 E2.30336
G1 X81.68 Y101.008 E2.32016
G1 X82.042 Y100.551 E2.35855
G1 X82.175 Y100.397 E2.37195
G1 X82.61 Y99.939 E2.41355
G1 X82.742 Y99.813 E2.42557
G1 X83.2 Y99.41 E2.46575
G1 X83.2 Y120.036 E3.82407
G1 X83.332 Y120.15 E3.83556
G1 X83.509 Y120.289 E3.85038
G1 X83.988 Y120.63 E3.8891
G1 X84.193 Y120.764 E3.90523
G1 X84.754 Y121.092 E3.94803
G1 X84.8 Y121.116 E3.95144
G1 X84.8 Y98.35 E5.4507
G1 X85.308 Y98.104 E5.48787
G1 X85.51 Y98.016 E5.50238
G1 X86.083 Y97.798 E5.54275
G1 X86.279 Y97.733 E5.55635
G1 X86.4 Y97.699 E5.56463
G1 X86.4 Y121.821 E7.15319
G1 X86.436 Y121.835 E7.15573
G1 X86.629 Y121.897 E7.16908
G1 X87.325 Y122.084 E7.21654
G1 X87.925 Y122.211 E7.25693
G1 X88 Y122.22 E7.2619
G1 X88 Y97.369 E8.89847
G1 X88.658 Y97.311 E8.94197
G1 X89.059 Y97.3 E8.96839
G1 X89.6 Y97.301 E9.00401
G1 X89.6 Y122.375 E10.65526
G1 X89.896 Y122.388 E10.67477
G1 X91.2 Y122.388 E10.76065
G1 X91.2 Y97.301 E12.41276
G1 X92.8 Y97.301 E12.51812
G1 X92.8 Y122.388 E14.17023
G1 X94.4 Y122.388 E14.2756
G1 X94.4 Y97.301 E15.9277
G1 X96 Y97.301 E16.03307
G1 X96 Y122.388 E17.68518
G1 X97.6 Y122.388 E17.79055
G1 X97.6 Y97.301 E19.44265
G1 X99.2 Y97.301 E19.54802
G1 X99.2 Y122.388 E21.20013
G1 X100.8 Y122.388 E21.30549
G1 X100.8 Y97.301 E22.9576
G1 X102.4 Y97.301 E23.06297
G1 X102.4 Y122.388 E24.71508
G1 X104 Y122.388 E24.82044
G1 X104 Y97.302 E26.47248
G1 X105.6 Y97.302 E26.57785
G1 X105.6 Y122.388 E28.22989
G1 X107.2 Y122.388 E28.33526
G1 X107.2 Y97.302 E29.9873
G1 X108.8 Y97.302 E30.09267
G1 X108.8 Y122.388 E31.74471
G1 X110.4 Y122.388 E31.85008
G1 X110.4 Y97.302 E33.50212
G1 X112 Y97.302 E33.60749
G1 X112 Y122.388 E35.25953
G1 X113.6 Y122.388 E35.36489
G1 X113.6 Y97.302 E37.01693
G1 X115.2 Y97.302 E37.1223
G1 X115.2 Y122.388 E38.77434
G1 X116.8 Y122.388 E38.87971
G1 X116.8 Y97.302 E40.53175
G1 X118.4 Y97.303 E40.63712
G1 X118.4 Y122.388 E42.28909
G1 X120 Y122.388 E42.39446
G1 X120 Y97.303 E44.04644
G1 X121.6 Y97.303 E44.1518
G1 X121.6 Y122.388 E45.80378
G1 X123.2 Y122.388 E45.90915
G1 X123.2 Y97.303 E47.56112
G1 X124.8 Y97.303 E47.66649
G1 X124.8 Y122.388 E49.31846
G1 X126.4 Y122.388 E49.42383
G1 X126.4 Y97.303 E51.07581
G1 X128 Y97.303 E51.18117
G1 X128 Y122.388 E52.83315
G1 X129.6 Y122.388 E52.93852
G1 X129.6 Y97.303 E54.59049
G1 X130.976 Y97.303 E54.68111
G1 X131.2 Y97.314 E54.69588
G1 X131.2 Y122.327 E56.34311
G1 X131.63 Y122.279 E56.3716
G1 X131.824 Y122.25 E56.38452
G1 X132.471 Y122.127 E56.42789
G1 X132.76 Y122.063 E56.44739
G1 X132.8 Y122.052 E56.45012
G1 X132.8 Y97.498 E58.06712
G1 X133.285 Y97.608 E58.09987
G1 X133.483 Y97.662 E58.11339
G1 X134.078 Y97.855 E58.15458
G1 X134.249 Y97.918 E58.16658
G1 X134.4 Y97.983 E58.17741
G1 X134.4 Y121.521 E59.72751
G1 X135.131 Y121.163 E59.78111
G1 X135.297 Y121.07 E59.79364
G1 X135.832 Y120.74 E59.83504
G1 X135.979 Y120.639 E59.84678
G1 X136 Y120.624 E59.84848
G1 X136 Y98.826 E61.28399
G1 X136.23 Y98.977 E61.30211
G1 X136.437 Y99.126 E61.31891
G1 X136.918 Y99.508 E61.35936
G1 X137.046 Y99.619 E61.37051
G1 X137.506 Y100.056 E61.4123
G1 X137.6 Y100.155 E61.42129
G1 X137.6 Y119.249 E62.67872
G1 X137.839 Y118.997 E62.7016
G1 X137.959 Y118.858 E62.71369
G1 X138.327 Y118.393 E62.75274
G1 X138.47 Y118.194 E62.76888
G1 X138.789 Y117.71 E62.80705
G1 X138.907 Y117.512 E62.82223
G1 X139.197 Y116.968 E62.86283
G1 X139.28 Y116.795 E62.87547
G1 X139.518 Y116.237 E62.91542
G1 X139.593 Y116.035 E62.92961
G1 X139.782 Y115.451 E62.97003
G1 X139.843 Y115.231 E62.98507
G1 X139.974 Y114.653 E63.0241
G1 X140.013 Y114.44 E63.03836
G1 X140.094 Y113.84 E63.07823
G1 X140.113 Y113.618 E63.0929
G1 X140.143 Y112.94 E63.13759
G1 X140.145 Y106.498 E63.56183
G1 X140.134 Y106.102 E63.58792
G1 X140.064 Y105.312 E63.64015
G1 X140.041 Y105.144 E63.65132
G1 X139.927 Y104.535 E63.69212
G1 X139.869 Y104.284 E63.70908
G1 X139.714 Y103.733 E63.74678
G1 X139.641 Y103.511 E63.76217
G1 X139.434 Y102.968 E63.80044
G1 X139.335 Y102.741 E63.81675
G1 X139.2 Y102.463 E63.8371
G1 X139.2 Y116.962 E64.79193
;;retract;;
G1 F6000 E56.79193
G0 F600 X139.2 Y116.962 Z0.41
G0 F7200 X140.434 Y105.079
;TIME_ELAPSED:55.470264

;LAYER:-3
;TYPE:SUPPORT
G1 F6000 E64.79193
G1 F1800 X132.371 Y97.016 E65.66423
G1 X132.547 Y97.04 E65.67782
G1 X132.759 Y97.078 E65.69429
G1 X133.382 Y97.22 E65.74317
G1 X133.588 Y97.276 E65.7595
G1 X134.217 Y97.48 E65.81009
G1 X134.27 Y97.5 E65.81442
G1 X139.937 Y103.167 E66.42751
G1 X140.021 Y103.386 E66.44545
G1 X140.094 Y103.608 E66.46333
G1 X140.259 Y104.194 E66.5099
G1 X140.317 Y104.445 E66.5296
G1 X140.434 Y105.07 E66.57825
G1 X140.46 Y105.257 E66.59269
G1 X140.534 Y106.091 E66.65674
G1 X140.545 Y106.498 E66.68789
G1 X140.543 Y106.602 E66.69584
G1 X130.844 Y96.903 E67.74513
G1 X129.43 Y96.903 E67.8533
G1 X140.543 Y108.016 E69.05556
G1 X140.543 Y109.431 E69.1638
G1 X128.016 Y96.903 E70.51909
G1 X126.601 Y96.903 E70.62733
G1 X140.543 Y110.844 E72.13559
G1 X140.543 Y112.258 E72.24376
G1 X125.187 Y96.903 E73.905
G1 X123.773 Y96.903 E74.01317
G1 X140.512 Y113.641 E75.82402
G1 X140.512 Y113.652 E75.82486
G1 X140.493 Y113.874 E75.84191
G1 X140.407 Y114.511 E75.89108
G1 X140.368 Y114.726 E75.90779
G1 X140.333 Y114.877 E75.91965
G1 X122.358 Y96.902 E77.86427
G1 X120.944 Y96.902 E77.97244
G1 X140.029 Y115.987 E80.03715
G1 X139.972 Y116.165 E80.05145
G1 X139.891 Y116.382 E80.06917
G1 X139.641 Y116.968 E80.11791
G1 X139.626 Y116.998 E80.12047
G1 X119.53 Y96.902 E82.29456
G1 X118.115 Y96.902 E82.4028
G1 X139.131 Y117.917 E84.67636
G1 X138.795 Y118.428 E84.72315
G1 X138.646 Y118.635 E84.74266
G1 X138.552 Y118.753 E84.7542
G1 X116.701 Y96.902 E87.11815
G1 X115.287 Y96.902 E87.22632
G1 X137.899 Y119.514 E89.67259
G1 X137.662 Y119.764 E89.69895
G1 X137.529 Y119.892 E89.71307
G1 X137.175 Y120.204 E89.74916
G1 X113.872 Y96.901 E92.2702
G1 X112.458 Y96.901 E92.37837
G1 X136.387 Y120.831 E94.96718
G1 X136.208 Y120.967 E94.98438
G1 X136.056 Y121.071 E94.99847
G1 X135.534 Y121.392 E95.04534
G1 X111.044 Y96.901 E97.69485
G1 X109.629 Y96.901 E97.80309
G1 X134.596 Y121.868 E100.50415
G1 X134.557 Y121.889 E100.50753
G1 X133.944 Y122.13 E100.55792
G1 X133.723 Y122.205 E100.57577
G1 X133.563 Y122.249 E100.58847
G1 X108.215 Y96.901 E103.33074
G1 X106.801 Y96.901 E103.43891
G1 X132.438 Y122.539 E106.2125
G1 X131.883 Y122.646 E106.25574
G1 X131.683 Y122.676 E106.27121
G1 X131.212 Y122.726 E106.30744
G1 X105.386 Y96.901 E109.10137
G1 X103.972 Y96.901 E109.20954
G1 X129.858 Y122.787 E112.01002
G1 X128.444 Y122.787 E112.11819
G1 X102.558 Y96.901 E114.91866
G1 X101.143 Y96.901 E115.02691
G1 X127.03 Y122.787 E117.82744
G1 X125.616 Y122.787 E117.93561
G1 X99.729 Y96.901 E120.73614
G1 X98.315 Y96.901 E120.8443
G1 X124.201 Y122.787 E123.64478
G1 X122.787 Y122.787 E123.75295
G1 X96.9 Y96.9 E126.55353
G1 X95.486 Y96.9 E126.6617
G1 X121.373 Y122.787 E129.46228
G1 X119.959 Y122.787 E129.57045
G1 X94.072 Y96.9 E132.37104
G1 X92.657 Y96.9 E132.47928
G1 X118.545 Y122.787 E135.27992
G1 X117.13 Y122.787 E135.38816
G1 X91.243 Y96.9 E138.18875
G1 X89.829 Y96.9 E138.29692
G1 X115.716 Y122.787 E141.0975
G1 X114.302 Y122.787 E141.20567
G1 X88.442 Y96.928 E144.00328
G1 X87.819 Y96.984 E144.05113
G1 X87.617 Y97.012 E144.06673
G1 X87.191 Y97.091 E144.09987
G1 X112.888 Y122.787 E146.87985
G1 X111.473 Y122.787 E146.98809
G1 X86.068 Y97.382 E149.73653
G1 X85.949 Y97.421 E149.74611
G1 X85.362 Y97.644 E149.79415
G1 X85.141 Y97.741 E149.81261
G1 X85.055 Y97.782 E149.8199
G1 X110.059 Y122.787 E152.52501
G1 X108.645 Y122.787 E152.63318
G1 X84.129 Y98.271 E155.28544
G1 X83.833 Y98.45 E155.3119
G1 X83.644 Y98.576 E155.32928
G1 X83.283 Y98.839 E155.36344
G1 X107.231 Y122.787 E157.95426
G1 X105.817 Y122.787 E158.06243
G1 X82.511 Y99.482 E160.58373
G1 X82.478 Y99.512 E160.58714
G1 X82.326 Y99.658 E160.60327
G1 X81.872 Y100.136 E160.6537
G1 X81.815 Y100.199 E160.6602
G1 X104.402 Y122.787 E163.10382
G1 X102.988 Y122.787 E163.21199
G1 X81.195 Y100.994 E165.56967
G1 X80.864 Y101.501 E165.61598
G1 X80.755 Y101.684 E165.63228
G1 X80.655 Y101.868 E165.6483
G1 X101.574 Y122.787 E167.91142
G1 X100.16 Y122.787 E168.01959
G1 X80.195 Y102.822 E170.1795
G1 X80.099 Y103.051 E170.1985
G1 X80.034 Y103.228 E170.21292
G1 X79.828 Y103.864 E170.26406
G0 F7200 X79.825 Y103.867
G1 F1800 X98.746 Y122.787 E172.31098
G1 X97.331 Y122.787 E172.41922
G1 X79.575 Y105.031 E174.34015
G1 X79.504 Y105.555 E174.3806
G1 X79.489 Y105.734 E174.39435
G1 X79.461 Y106.331 E174.44006
G1 X95.917 Y122.787 E176.22036
G1 X94.503 Y122.787 E176.32852
G1 X79.456 Y107.74 E177.95638
G1 X79.455 Y109.153 E178.06448
G1 X93.089 Y122.787 E179.53947
G1 X91.674 Y122.787 E179.64771
G1 X79.454 Y110.567 E180.96973
G1 X79.454 Y111.98 E181.07783
G1 X90.26 Y122.787 E182.24693
G1 X89.879 Y122.788 E182.27607
G1 X89.075 Y122.753 E182.33764
G1 X88.783 Y122.724 E182.36008
G1 X79.469 Y113.41 E183.36772
G1 X79.549 Y114.207 E183.42899
G1 X79.587 Y114.461 E183.44864
G1 X79.706 Y115.064 E183.49566
G1 X79.754 Y115.262 E183.51124
G1 X79.939 Y115.898 E183.56191
G1 X80.006 Y116.092 E183.57761
G1 X80.289 Y116.813 E183.63687
G1 X80.555 Y117.324 E183.68094
G1 X84.8 Y121.57 E184.14024
G1 X85.517 Y121.912 E184.201
G1 X85.714 Y121.995 E184.21736
G1 X86.314 Y122.216 E184.26627
G1 X86.51 Y122.279 E184.28202
G1 X87.074 Y122.429 E184.32667
G1 X79.705 Y115.061 E185.12383
;;retract;;
G1 F6000 E177.12383
G0 F600 X79.705 Y115.061 Z0.56
G0 F7200 X86.235 Y122.4
;TIME_ELAPSED:111.862088

;LAYER:-2
;TYPE:SUPPORT-INTERFACE
G1 F6000 E185.12383
G1 F2400 X133.764 Y122.4 E186.30944
G1 X132.906 Y122.645 E186.3317
G1 X132.592 Y122.716 E186.33973
G1 X132.141 Y122.8 E186.35117
G1 X87.815 Y122.8 E187.45689
G1 X87.179 Y122.666 E187.4731
G1 X86.443 Y122.468 E187.49212
G1 X86.261 Y122.409 E187.49689
G1 X85.628 Y122.177 E187.51371
G1 X85.438 Y122.096 E187.51886
G1 X85.235 Y122 E187.52446
G1 X134.793 Y122 E188.76069
G1 X134.807 Y121.995 E188.76106
G1 X135.41 Y121.694 E188.77787
G1 X135.577 Y121.6 E188.78265
G1 X84.434 Y121.6 E190.05842
G1 X83.858 Y121.262 E190.07508
G1 X83.762 Y121.2 E190.07793
G1 X136.219 Y121.2 E191.38648
G1 X136.328 Y121.127 E191.38975
G1 X136.762 Y120.8 E191.4033
G1 X83.191 Y120.8 E192.73964
G1 X83.14 Y120.763 E192.74121
G1 X82.968 Y120.628 E192.74666
G1 X82.701 Y120.4 E192.75542
G1 X137.256 Y120.4 E194.1163
G1 X137.664 Y120.04 E194.12987
G1 X137.704 Y120 E194.13129
G1 X82.259 Y120 E195.51437
G1 X81.869 Y119.6 E195.5283
G1 X138.093 Y119.6 E196.93082
G1 X138.274 Y119.411 E196.93734
G1 X138.414 Y119.249 E196.94269
G1 X138.452 Y119.2 E196.94423
G1 X81.527 Y119.2 E198.36423
G1 X81.297 Y118.915 E198.37337
G1 X81.211 Y118.8 E198.37695
G1 X138.769 Y118.8 E199.81274
G1 X138.814 Y118.745 E199.81451
G1 X138.958 Y118.545 E199.82066
G1 X139.052 Y118.4 E199.82497
G1 X80.936 Y118.4 E201.27468
G1 X80.793 Y118.188 E201.28106
G1 X80.681 Y118 E201.28652
G1 X139.315 Y118 E202.74915
G1 X139.423 Y117.82 E202.75439
G1 X139.539 Y117.6 E202.76059
G1 X80.472 Y117.6 E204.23402
G1 X80.264 Y117.2 E204.24527
G1 X139.75 Y117.2 E205.72915
G1 X139.829 Y117.038 E205.73365
G1 X139.929 Y116.8 E205.74009
G1 X80.069 Y116.8 E207.2333
G1 X79.911 Y116.4 E207.24403
G1 X140.098 Y116.4 E208.7454
G1 X140.164 Y116.225 E208.75007
G1 X140.236 Y116 E208.75596
G1 X79.762 Y116 E210.26449
G1 X79.745 Y115.948 E210.26585
G1 X79.643 Y115.6 E210.2749
G1 X140.364 Y115.6 E211.78959
G1 X140.422 Y115.392 E211.79498
G1 X140.465 Y115.2 E211.79989
G1 X79.532 Y115.2 E213.31987
G1 X79.511 Y115.111 E213.32215
G1 X79.449 Y114.8 E213.33006
G1 X140.555 Y114.8 E214.85435
G1 X140.565 Y114.761 E214.85536
G1 X140.604 Y114.546 E214.86081
G1 X140.623 Y114.4 E214.86448
G1 X79.375 Y114.4 E216.39232
G1 X79.351 Y114.236 E216.39645
G1 X79.327 Y114 E216.40237
G1 X140.677 Y114 E217.93275
G1 X140.694 Y113.881 E217.93575
G1 X140.711 Y113.677 E217.94086
G1 X140.714 Y113.6 E217.94278
G1 X79.288 Y113.6 E219.47506
G1 X79.269 Y113.402 E219.48002
G1 X79.263 Y113.2 E219.48506
G1 X140.732 Y113.2 E221.01841
G1 X140.743 Y112.967 E221.02423
G1 X140.743 Y112.8 E221.0284
G1 X79.255 Y112.8 E222.56222
G1 X79.255 Y112.4 E222.5722
G1 X140.743 Y112.4 E224.10602
G1 X140.743 Y112 E224.116
G1 X79.255 Y112 E225.64982
G1 X79.255 Y111.6 E225.6598
G1 X140.743 Y111.6 E227.19363
G1 X140.743 Y111.2 E227.20361
G1 X79.255 Y111.2 E228.73743
